;FLAVOR:Marlin
;TIME:2706
;Filament used: 3.20418m
;Layer height: 0.2
;MINX:-45.297
;MINY:-45.299
;MINZ:0.3
;MAXX:45.298
;MAXY:45.299
;MAXZ:6.1
;Generated with Cura_SteamEngine 4.1.0
M104 S200
M105
M109 S200
M82 ;absolute extrusion mode
G28 ;Home
G1 Z15.0 F6000 ;Move the platform down 15mm
;Prime the extruder
G92 E0
G1 F200 E3
G92 E0
G92 E0
G92 E0
G1 F1500 E-5
;LAYER_COUNT:30
;LAYER:0
M107
G0 F3600 X-41.911 Y17.183 Z0.3
;TYPE:SKIRT
G1 F1500 E0
G1 F2400 X-42.273 Y16.276 E0.04872
G1 X-42.354 Y16.066 E0.05995
G1 X-42.69 Y15.148 E0.10872
G1 X-42.753 Y14.969 E0.11819
G1 X-43.067 Y14.042 E0.16702
G1 X-43.133 Y13.837 E0.17776
G1 X-43.419 Y12.909 E0.22621
G1 X-43.475 Y12.719 E0.23609
G1 X-43.741 Y11.771 E0.28521
G1 X-43.791 Y11.582 E0.29497
G1 X-44.031 Y10.636 E0.34366
G1 X-44.078 Y10.44 E0.35371
G1 X-44.294 Y9.486 E0.40251
G1 X-44.34 Y9.272 E0.41344
G1 X-44.529 Y8.313 E0.4622
G1 X-44.565 Y8.118 E0.47209
G1 X-44.73 Y7.152 E0.52098
G1 X-44.762 Y6.948 E0.53129
G1 X-44.9 Y5.987 E0.57972
G1 X-44.925 Y5.798 E0.58923
G1 X-45.041 Y4.821 E0.63832
G1 X-45.062 Y4.616 E0.6486
G1 X-45.151 Y3.649 E0.69705
G1 X-45.168 Y3.433 E0.70786
G1 X-45.231 Y2.451 E0.75695
G1 X-45.241 Y2.264 E0.76629
G1 X-45.28 Y1.289 E0.81498
G1 X-45.285 Y1.073 E0.82575
G1 X-45.297 Y0.099 E0.87435
G1 X-45.297 Y-0.093 E0.88393
G1 X-45.285 Y-1.07 E0.93268
G1 X-45.28 Y-1.285 E0.94341
G1 X-45.241 Y-2.261 E0.99214
G1 X-45.231 Y-2.45 E1.00158
G1 X-45.168 Y-3.431 E1.05062
G1 X-45.152 Y-3.637 E1.06093
G1 X-45.064 Y-4.605 E1.10942
G1 X-45.041 Y-4.826 E1.12051
G1 X-44.924 Y-5.803 E1.1696
G1 X-44.901 Y-5.976 E1.17831
G1 X-44.764 Y-6.938 E1.22679
G1 X-44.73 Y-7.154 E1.2377
G1 X-44.565 Y-8.118 E1.28649
G1 X-44.528 Y-8.318 E1.29664
G1 X-44.338 Y-9.277 E1.34541
G1 X-44.296 Y-9.476 E1.35556
G1 X-44.081 Y-10.43 E1.40435
G1 X-44.032 Y-10.637 E1.41496
G1 X-43.791 Y-11.585 E1.46376
G1 X-43.742 Y-11.767 E1.47316
G1 X-43.477 Y-12.713 E1.52218
G1 X-43.421 Y-12.904 E1.53211
G1 X-43.135 Y-13.833 E1.5806
G1 X-43.069 Y-14.036 E1.59125
G1 X-42.756 Y-14.962 E1.64002
G1 X-42.687 Y-15.159 E1.65043
G1 X-42.349 Y-16.077 E1.69924
G1 X-42.277 Y-16.264 E1.70923
G1 X-41.916 Y-17.172 E1.75798
G1 X-41.841 Y-17.355 E1.76785
G1 X-41.456 Y-18.256 E1.81673
G1 X-41.375 Y-18.439 E1.82672
G1 X-40.966 Y-19.332 E1.87572
G1 X-40.874 Y-19.524 E1.88634
G1 X-40.446 Y-20.395 E1.93476
G1 X-40.359 Y-20.567 E1.94437
G1 X-39.906 Y-21.434 E1.99318
G1 X-39.804 Y-21.623 E2.00389
G1 X-39.328 Y-22.476 E2.05263
G1 X-39.23 Y-22.646 E2.06242
G1 X-38.729 Y-23.493 E2.11151
G1 X-38.627 Y-23.662 E2.12136
G1 X-38.111 Y-24.486 E2.16986
G1 X-37.992 Y-24.669 E2.18075
G1 X-37.45 Y-25.483 E2.22954
G1 X-37.341 Y-25.644 E2.23924
G1 X-36.779 Y-26.444 E2.28802
G1 X-36.658 Y-26.611 E2.29831
G1 X-36.072 Y-27.4 E2.34734
G1 X-35.952 Y-27.557 E2.3572
G1 X-35.354 Y-28.321 E2.4056
G1 X-35.22 Y-28.487 E2.41625
G1 X-34.595 Y-29.242 E2.46515
G1 X-34.467 Y-29.393 E2.47502
G1 X-33.822 Y-30.133 E2.524
G1 X-33.681 Y-30.29 E2.53452
G1 X-33.022 Y-31.006 E2.58307
G1 X-32.889 Y-31.147 E2.59274
G1 X-32.209 Y-31.85 E2.64154
G1 X-32.067 Y-31.994 E2.65163
G1 X-31.366 Y-32.682 E2.70063
G1 X-31.226 Y-32.816 E2.7103
G1 X-30.516 Y-33.479 E2.75876
G1 X-30.352 Y-33.627 E2.76979
G1 X-29.614 Y-34.278 E2.81888
G1 X-29.458 Y-34.413 E2.82917
G1 X-28.713 Y-35.036 E2.87763
G1 X-28.563 Y-35.158 E2.88727
G1 X-27.797 Y-35.767 E2.93609
G1 X-27.64 Y-35.889 E2.94601
G1 X-26.859 Y-36.478 E2.99482
G1 X-26.687 Y-36.603 E3.00542
G1 X-25.891 Y-37.17 E3.05418
G1 X-25.729 Y-37.282 E3.06401
G1 X-24.914 Y-37.832 E3.11306
G1 X-24.733 Y-37.951 E3.12387
G1 X-23.908 Y-38.475 E3.17263
G1 X-23.739 Y-38.579 E3.18253
G1 X-22.904 Y-39.08 E3.23111
G1 X-22.739 Y-39.177 E3.24066
G1 X-21.889 Y-39.659 E3.28941
G1 X-21.703 Y-39.761 E3.29999
G1 X-20.836 Y-40.222 E3.34898
G1 X-20.662 Y-40.312 E3.35875
G1 X-19.79 Y-40.748 E3.40739
G1 X-19.598 Y-40.84 E3.41802
G1 X-18.708 Y-41.255 E3.46701
G1 X-18.529 Y-41.336 E3.47681
G1 X-17.639 Y-41.724 E3.52525
G1 X-17.46 Y-41.799 E3.53493
G1 X-16.555 Y-42.167 E3.58367
G1 X-16.343 Y-42.25 E3.59503
G1 X-15.426 Y-42.592 E3.64386
G1 X-15.238 Y-42.659 E3.65381
G1 X-14.314 Y-42.977 E3.70257
G1 X-14.133 Y-43.037 E3.71208
G1 X-13.196 Y-43.334 E3.76112
G1 X-13.005 Y-43.392 E3.77108
G1 X-12.071 Y-43.662 E3.81958
G1 X-11.858 Y-43.72 E3.8306
G1 X-10.907 Y-43.966 E3.8796
G1 X-10.718 Y-44.013 E3.88932
G1 X-9.766 Y-44.234 E3.93808
G1 X-9.564 Y-44.278 E3.94839
G1 X-8.61 Y-44.473 E3.99697
G1 X-8.413 Y-44.511 E4.00698
G1 X-7.451 Y-44.682 E4.05573
G1 X-7.252 Y-44.714 E4.06578
G1 X-6.28 Y-44.861 E4.11483
G1 X-6.083 Y-44.889 E4.12476
G1 X-5.117 Y-45.01 E4.17333
G1 X-4.903 Y-45.033 E4.18407
G1 X-3.926 Y-45.128 E4.23304
G1 X-3.748 Y-45.144 E4.24195
G1 X-2.777 Y-45.216 E4.29053
G1 X-2.542 Y-45.23 E4.30228
G1 X-1.561 Y-45.273 E4.35126
G1 X-1.371 Y-45.279 E4.36075
G1 X-.395 Y-45.298 E4.40945
G1 X-.195 Y-45.299 E4.41943
G1 X0.779 Y-45.293 E4.46802
G1 X0.986 Y-45.289 E4.47835
G1 X1.963 Y-45.257 E4.52712
G1 X2.16 Y-45.248 E4.53696
G1 X3.141 Y-45.191 E4.58598
G1 X3.355 Y-45.176 E4.59669
G1 X4.324 Y-45.093 E4.64521
G1 X4.515 Y-45.074 E4.65478
G1 X5.492 Y-44.966 E4.70382
G1 X5.703 Y-44.939 E4.71444
G1 X6.672 Y-44.805 E4.76324
G1 X6.864 Y-44.777 E4.77292
G1 X7.823 Y-44.62 E4.8214
G1 X8.031 Y-44.583 E4.83194
G1 X8.991 Y-44.399 E4.88071
G1 X9.191 Y-44.358 E4.89089
G1 X10.146 Y-44.149 E4.93967
G1 X10.342 Y-44.103 E4.94971
G1 X11.293 Y-43.869 E4.99857
G1 X11.479 Y-43.821 E5.00815
G1 X12.426 Y-43.563 E5.05712
G1 X12.639 Y-43.501 E5.06819
G1 X13.569 Y-43.219 E5.11667
G1 X13.756 Y-43.16 E5.12646
G1 X14.69 Y-42.851 E5.17554
G1 X14.874 Y-42.788 E5.18524
G1 X15.794 Y-42.458 E5.234
G1 X15.995 Y-42.383 E5.24471
G1 X16.905 Y-42.028 E5.29344
G1 X17.086 Y-41.954 E5.3032
G1 X17.985 Y-41.577 E5.35183
G1 X18.176 Y-41.494 E5.36222
G1 X19.065 Y-41.093 E5.41088
G1 X19.247 Y-41.008 E5.4209
G1 X20.128 Y-40.583 E5.4697
G1 X20.316 Y-40.49 E5.48016
G1 X21.19 Y-40.039 E5.52923
G1 X21.353 Y-39.952 E5.53845
G1 X22.206 Y-39.486 E5.58694
G1 X22.41 Y-39.37 E5.59865
G1 X23.258 Y-38.873 E5.64769
G1 X23.414 Y-38.779 E5.65677
G1 X24.241 Y-38.268 E5.70527
G1 X24.409 Y-38.162 E5.71518
G1 X25.232 Y-37.624 E5.76424
G1 X25.408 Y-37.505 E5.77484
G1 X26.207 Y-36.951 E5.82334
G1 X26.376 Y-36.83 E5.83371
G1 X27.164 Y-36.252 E5.88247
G1 X27.325 Y-36.132 E5.89249
G1 X28.099 Y-35.533 E5.94132
G1 X28.253 Y-35.41 E5.95115
G1 X29.01 Y-34.793 E5.99987
G1 X29.169 Y-34.66 E6.01021
G1 X29.914 Y-34.019 E6.05924
G1 X30.067 Y-33.884 E6.06942
G1 X30.787 Y-33.231 E6.11792
G1 X30.933 Y-33.094 E6.12791
G1 X31.641 Y-32.418 E6.17674
G1 X31.786 Y-32.276 E6.18687
G1 X32.475 Y-31.583 E6.23562
G1 X32.624 Y-31.43 E6.24628
G1 X33.297 Y-30.715 E6.29527
G1 X33.431 Y-30.569 E6.30515
G1 X34.084 Y-29.839 E6.35402
G1 X34.213 Y-29.691 E6.36381
G1 X34.842 Y-28.951 E6.41227
G1 X34.969 Y-28.797 E6.42223
G1 X35.583 Y-28.036 E6.47101
G1 X35.716 Y-27.866 E6.48178
G1 X36.309 Y-27.088 E6.53058
G1 X36.426 Y-26.932 E6.54031
G1 X36.999 Y-26.14 E6.58908
G1 X37.111 Y-25.981 E6.59878
G1 X37.664 Y-25.175 E6.64755
G1 X37.791 Y-24.983 E6.65903
G1 X38.32 Y-24.161 E6.7078
G1 X38.421 Y-24 E6.71728
G1 X38.93 Y-23.165 E6.76607
G1 X39.034 Y-22.989 E6.77627
G1 X39.521 Y-22.141 E6.82506
G1 X39.615 Y-21.972 E6.83471
G1 X40.083 Y-21.108 E6.88373
G1 X40.184 Y-20.916 E6.89455
G1 X40.624 Y-20.047 E6.94315
G1 X40.714 Y-19.864 E6.95332
G1 X41.132 Y-18.982 E7.00202
G1 X41.213 Y-18.804 E7.01177
G1 X41.609 Y-17.911 E7.06051
G1 X41.689 Y-17.724 E7.07066
G1 X42.062 Y-16.82 E7.11945
G1 X42.135 Y-16.637 E7.12927
G1 X42.485 Y-15.724 E7.17806
G1 X42.559 Y-15.523 E7.18874
G1 X42.884 Y-14.6 E7.23756
G1 X42.947 Y-14.413 E7.24741
G1 X43.248 Y-13.484 E7.29613
G1 X43.311 Y-13.28 E7.30678
G1 X43.587 Y-12.341 E7.35561
G1 X43.639 Y-12.158 E7.3651
G1 X43.892 Y-11.213 E7.41391
G1 X43.942 Y-11.016 E7.42405
G1 X44.17 Y-10.066 E7.47279
G1 X44.217 Y-9.859 E7.48338
G1 X44.419 Y-8.903 E7.53213
G1 X44.459 Y-8.695 E7.54269
G1 X44.635 Y-7.734 E7.59143
G1 X44.667 Y-7.551 E7.6007
G1 X44.821 Y-6.58 E7.64975
G1 X44.851 Y-6.368 E7.66043
G1 X44.977 Y-5.403 E7.70899
G1 X45 Y-5.211 E7.71863
G1 X45.103 Y-4.234 E7.76765
G1 X45.122 Y-4.025 E7.77812
G1 X45.198 Y-3.055 E7.82666
G1 X45.211 Y-2.853 E7.83676
G1 X45.262 Y-1.877 E7.88552
G1 X45.27 Y-1.67 E7.89585
G1 X45.295 Y-.693 E7.94461
G1 X45.298 Y-.493 E7.95459
G1 X45.298 Y0.487 E8.00348
G1 X45.295 Y0.687 E8.01346
G1 X45.27 Y1.662 E8.06212
G1 X45.262 Y1.867 E8.07236
G1 X45.211 Y2.848 E8.12136
G1 X45.198 Y3.052 E8.13156
G1 X45.122 Y4.022 E8.1801
G1 X45.104 Y4.22 E8.19002
G1 X45.003 Y5.191 E8.23873
G1 X44.979 Y5.396 E8.24903
G1 X44.852 Y6.367 E8.29788
G1 X44.821 Y6.584 E8.30882
G1 X44.667 Y7.549 E8.35757
G1 X44.635 Y7.731 E8.36679
G1 X44.458 Y8.693 E8.41559
G1 X44.419 Y8.892 E8.42571
G1 X44.216 Y9.854 E8.47476
G1 X44.17 Y10.058 E8.48519
G1 X43.944 Y11.003 E8.53367
G1 X43.895 Y11.199 E8.54375
G1 X43.643 Y12.144 E8.59254
G1 X43.589 Y12.336 E8.60249
G1 X43.313 Y13.274 E8.65127
G1 X43.251 Y13.474 E8.66172
G1 X42.95 Y14.404 E8.71049
G1 X42.886 Y14.593 E8.72044
G1 X42.561 Y15.516 E8.76926
G1 X42.49 Y15.71 E8.77957
G1 X42.141 Y16.623 E8.82833
G1 X42.064 Y16.816 E8.8387
G1 X41.691 Y17.719 E8.88744
G1 X41.614 Y17.9 E8.89725
G1 X41.218 Y18.794 E8.94604
G1 X41.134 Y18.976 E8.95604
G1 X40.713 Y19.864 E9.00507
G1 X40.625 Y20.043 E9.01502
G1 X40.186 Y20.911 E9.06355
G1 X40.089 Y21.098 E9.07405
G1 X39.625 Y21.957 E9.12276
G1 X39.524 Y22.137 E9.13306
G1 X39.036 Y22.986 E9.18192
G1 X38.928 Y23.169 E9.19252
G1 X38.416 Y24.006 E9.24147
G1 X38.319 Y24.16 E9.25055
G1 X37.792 Y24.978 E9.29909
G1 X37.677 Y25.152 E9.3095
G1 X37.126 Y25.959 E9.35825
G1 X37.002 Y26.135 E9.36899
G1 X36.428 Y26.928 E9.41783
G1 X36.308 Y27.09 E9.42789
G1 X35.715 Y27.866 E9.47661
G1 X35.598 Y28.014 E9.48603
G1 X34.982 Y28.781 E9.53511
G1 X34.844 Y28.949 E9.54595
G1 X34.214 Y29.69 E9.59448
G1 X34.085 Y29.838 E9.60427
G1 X33.433 Y30.567 E9.65307
G1 X33.304 Y30.708 E9.6626
G1 X32.636 Y31.419 E9.71127
G1 X32.478 Y31.581 E9.72256
G1 X31.788 Y32.274 E9.77135
G1 X31.648 Y32.412 E9.78116
G1 X30.938 Y33.09 E9.83014
G1 X30.792 Y33.226 E9.84009
G1 X30.07 Y33.881 E9.88873
G1 X29.912 Y34.021 E9.89926
G1 X29.167 Y34.661 E9.94826
G1 X29.028 Y34.777 E9.95729
G1 X28.275 Y35.394 E10.00586
G1 X28.095 Y35.537 E10.01733
G1 X27.321 Y36.134 E10.06609
G1 X27.17 Y36.247 E10.0755
G1 X26.382 Y36.825 E10.12426
G1 X26.206 Y36.951 E10.13506
G1 X25.402 Y37.507 E10.18383
G1 X25.253 Y37.608 E10.19281
G1 X24.437 Y38.145 E10.24154
G1 X24.245 Y38.267 E10.25289
G1 X23.412 Y38.781 E10.30173
G1 X23.248 Y38.879 E10.31126
G1 X22.4 Y39.374 E10.36024
G1 X22.229 Y39.471 E10.37005
G1 X21.377 Y39.94 E10.41857
G1 X21.177 Y40.047 E10.42989
G1 X20.302 Y40.496 E10.47896
G1 X20.14 Y40.577 E10.48799
G1 X19.26 Y41.003 E10.53677
G1 X19.069 Y41.092 E10.54728
G1 X18.178 Y41.494 E10.59605
G1 X17.985 Y41.578 E10.60655
G1 X17.088 Y41.954 E10.65507
G1 X16.905 Y42.028 E10.66492
G1 X15.994 Y42.383 E10.7137
G1 X15.803 Y42.454 E10.72387
G1 X14.883 Y42.785 E10.77265
G1 X14.687 Y42.853 E10.783
G1 X13.754 Y43.161 E10.83201
G1 X13.572 Y43.218 E10.84153
G1 X12.642 Y43.5 E10.89001
G1 X12.435 Y43.56 E10.90077
G1 X11.487 Y43.819 E10.9498
G1 X11.295 Y43.869 E10.95969
G1 X10.344 Y44.103 E11.00855
G1 X10.158 Y44.146 E11.01808
G1 X9.209 Y44.355 E11.06656
G1 X8.992 Y44.4 E11.07762
G1 X8.027 Y44.584 E11.12663
G1 X7.824 Y44.62 E11.13691
G1 X6.863 Y44.777 E11.18549
G1 X6.668 Y44.806 E11.19533
G1 X5.701 Y44.939 E11.24403
G1 X5.502 Y44.964 E11.25403
G1 X4.524 Y45.073 E11.30313
G1 X4.326 Y45.092 E11.31305
G1 X3.358 Y45.175 E11.36152
G1 X3.144 Y45.191 E11.37223
G1 X2.161 Y45.248 E11.42135
G1 X1.965 Y45.257 E11.43114
G1 X0.989 Y45.289 E11.47986
G1 X0.781 Y45.293 E11.49024
G1 X-.192 Y45.299 E11.53878
G1 X-.392 Y45.298 E11.54876
G1 X-1.368 Y45.279 E11.59746
G1 X-1.573 Y45.272 E11.6077
G1 X-2.555 Y45.227 E11.65674
G1 X-2.759 Y45.215 E11.66694
G1 X-3.73 Y45.145 E11.71551
G1 X-3.923 Y45.128 E11.72517
G1 X-4.901 Y45.033 E11.77419
G1 X-5.111 Y45.01 E11.78473
G1 X-6.075 Y44.89 E11.8332
G1 X-6.277 Y44.862 E11.84337
G1 X-7.249 Y44.715 E11.89242
G1 X-7.447 Y44.683 E11.90242
G1 X-8.41 Y44.512 E11.95122
G1 X-8.611 Y44.473 E11.96143
G1 X-9.563 Y44.278 E12.00992
G1 X-9.762 Y44.235 E12.02007
G1 X-10.714 Y44.014 E12.06883
G1 X-10.916 Y43.964 E12.07921
G1 X-11.868 Y43.716 E12.12829
G1 X-12.051 Y43.666 E12.13776
G1 X-12.986 Y43.398 E12.18628
G1 X-13.196 Y43.335 E12.19722
G1 X-14.132 Y43.038 E12.24621
G1 X-14.311 Y42.978 E12.25563
G1 X-15.235 Y42.66 E12.30439
G1 X-15.435 Y42.589 E12.31497
G1 X-16.35 Y42.246 E12.36373
G1 X-16.538 Y42.173 E12.37379
G1 X-17.445 Y41.806 E12.4226
G1 X-17.637 Y41.725 E12.433
G1 X-18.529 Y41.336 E12.48155
G1 X-18.707 Y41.255 E12.4913
G1 X-19.597 Y40.84 E12.5403
G1 X-19.789 Y40.748 E12.55092
G1 X-20.659 Y40.313 E12.59945
G1 X-20.83 Y40.225 E12.60904
G1 X-21.698 Y39.764 E12.65807
G1 X-21.886 Y39.66 E12.66879
G1 X-22.738 Y39.177 E12.71765
G1 X-22.899 Y39.083 E12.72696
G1 X-23.732 Y38.584 E12.7754
G1 X-23.912 Y38.474 E12.78592
G1 X-24.737 Y37.949 E12.83471
G1 X-24.912 Y37.833 E12.84519
G1 X-25.727 Y37.283 E12.89424
G1 X-25.891 Y37.17 E12.90418
G1 X-26.688 Y36.602 E12.953
G1 X-26.851 Y36.482 E12.9631
G1 X-27.631 Y35.895 E13.0118
G1 X-27.794 Y35.769 E13.02208
G1 X-28.559 Y35.161 E13.07083
G1 X-28.71 Y35.038 E13.08055
G1 X-29.456 Y34.414 E13.12907
G1 X-29.62 Y34.273 E13.13986
G1 X-30.356 Y33.622 E13.18888
G1 X-30.508 Y33.484 E13.19913
G1 X-31.22 Y32.82 E13.2477
G1 X-31.36 Y32.687 E13.25733
G1 X-32.062 Y31.999 E13.30637
G1 X-32.205 Y31.855 E13.3165
G1 X-32.885 Y31.153 E13.36526
G1 X-33.017 Y31.012 E13.37489
G1 X-33.676 Y30.297 E13.4234
G1 X-33.824 Y30.132 E13.43446
G1 X-34.469 Y29.391 E13.48347
G1 X-34.599 Y29.238 E13.49349
G1 X-35.222 Y28.484 E13.54229
G1 X-35.346 Y28.33 E13.55215
G1 X-35.946 Y27.565 E13.60066
G1 X-36.075 Y27.397 E13.61122
G1 X-36.66 Y26.608 E13.66023
G1 X-36.777 Y26.446 E13.6702
G1 X-37.339 Y25.646 E13.71897
G1 X-37.448 Y25.485 E13.72867
G1 X-37.99 Y24.671 E13.77746
G1 X-38.105 Y24.494 E13.78799
G1 X-38.622 Y23.67 E13.83652
G1 X-38.728 Y23.495 E13.84673
G1 X-39.229 Y22.648 E13.89583
G1 X-39.331 Y22.472 E13.90598
G1 X-39.806 Y21.619 E13.95468
G1 X-39.899 Y21.446 E13.96448
G1 X-40.353 Y20.58 E14.01327
G1 X-40.447 Y20.395 E14.02362
G1 X-40.875 Y19.523 E14.07208
G1 X-40.964 Y19.335 E14.08246
G1 X-41.374 Y18.44 E14.13157
G1 X-41.456 Y18.255 E14.14167
G1 X-41.84 Y17.356 E14.19044
G1 X-41.911 Y17.183 E14.19977
G0 F3600 X-41.54 Y17.035
G1 F2400 X-41.902 Y16.128 E14.24849
G1 X-41.978 Y15.928 E14.25916
G1 X-42.314 Y15.01 E14.30794
G1 X-42.374 Y14.841 E14.31688
G1 X-42.688 Y13.914 E14.36571
G1 X-42.751 Y13.719 E14.37594
G1 X-43.037 Y12.791 E14.42438
G1 X-43.09 Y12.611 E14.43374
G1 X-43.356 Y11.663 E14.48287
G1 X-43.404 Y11.484 E14.49211
G1 X-43.644 Y10.538 E14.5408
G1 X-43.688 Y10.352 E14.55034
G1 X-43.904 Y9.398 E14.59914
G1 X-43.947 Y9.195 E14.60949
G1 X-44.136 Y8.236 E14.65826
G1 X-44.17 Y8.051 E14.66764
G1 X-44.335 Y7.085 E14.71653
G1 X-44.366 Y6.891 E14.72633
G1 X-44.504 Y5.93 E14.77477
G1 X-44.527 Y5.75 E14.78382
G1 X-44.643 Y4.773 E14.83291
G1 X-44.664 Y4.579 E14.84264
G1 X-44.753 Y3.612 E14.89109
G1 X-44.769 Y3.408 E14.9013
G1 X-44.832 Y2.426 E14.95039
G1 X-44.841 Y2.248 E14.95929
G1 X-44.88 Y1.273 E15.00797
G1 X-44.885 Y1.068 E15.0182
G1 X-44.897 Y0.094 E15.06679
G1 X-44.897 Y-0.088 E15.07587
G1 X-44.885 Y-1.065 E15.12462
G1 X-44.88 Y-1.269 E15.1348
G1 X-44.841 Y-2.245 E15.18353
G1 X-44.832 Y-2.424 E15.19247
G1 X-44.769 Y-3.405 E15.24152
G1 X-44.754 Y-3.601 E15.25132
G1 X-44.666 Y-4.569 E15.29982
G1 X-44.644 Y-4.779 E15.31035
G1 X-44.527 Y-5.756 E15.35944
G1 X-44.505 Y-5.919 E15.36765
G1 X-44.368 Y-6.881 E15.41613
G1 X-44.336 Y-7.086 E15.42648
G1 X-44.171 Y-8.05 E15.47527
G1 X-44.136 Y-8.24 E15.48491
G1 X-43.946 Y-9.199 E15.53369
G1 X-43.906 Y-9.388 E15.54332
G1 X-43.691 Y-10.342 E15.59211
G1 X-43.644 Y-10.538 E15.60217
G1 X-43.403 Y-11.486 E15.65097
G1 X-43.357 Y-11.659 E15.6599
G1 X-43.092 Y-12.605 E15.70891
G1 X-43.038 Y-12.786 E15.71834
G1 X-42.752 Y-13.715 E15.76683
G1 X-42.69 Y-13.908 E15.77694
G1 X-42.377 Y-14.834 E15.82571
G1 X-42.311 Y-15.021 E15.8356
G1 X-41.973 Y-15.939 E15.88441
