;FLAVOR:Marlin
;TIME:390
;Filament used: 0.497075m
;Layer height: 0.2
;MINX:-24.544
;MINY:-16.294
;MINZ:0.3
;MAXX:24.544
;MAXY:16.294
;MAXZ:4.9
;Generated with Cura_SteamEngine 4.1.0
M104 S200
M105
M109 S200
M82 ;absolute extrusion mode
G28 ;Home
G1 Z15.0 F6000 ;Move the platform down 15mm
;Prime the extruder
G92 E0
G1 F200 E3
G92 E0
G92 E0
G92 E0
G1 F1500 E-5
;LAYER_COUNT:24
;LAYER:0
M107
G0 F3600 X4.156 Y2.294 Z0.3
;TYPE:SKIRT
G1 F1500 E0
G1 F2400 X-4.156 Y2.294 E0.41469
G1 X-4.156 Y2.988 E0.44931
G1 X-4.112 Y3.067 E0.45382
G1 X-3.914 Y3.504 E0.47776
G1 X-3.811 Y3.751 E0.49111
G1 X-3.544 Y4.494 E0.5305
G1 X-3.354 Y5.261 E0.56992
G1 X-3.242 Y6.042 E0.60928
G1 X-3.21 Y6.831 E0.64868
G1 X-3.258 Y7.62 E0.68812
G1 X-3.386 Y8.399 E0.7275
G1 X-3.591 Y9.162 E0.76692
G1 X-3.873 Y9.899 E0.80629
G1 X-4.227 Y10.605 E0.84569
G1 X-4.652 Y11.271 E0.8851
G1 X-5.141 Y11.891 E0.9245
G1 X-5.496 Y12.27 E0.95041
G1 X-6.936 Y13.709 E1.05197
G1 X-7.504 Y14.223 E1.09019
G1 X-7.871 Y14.524 E1.11387
G1 X-8.506 Y14.993 E1.15325
G1 X-9.185 Y15.396 E1.19265
G1 X-9.902 Y15.728 E1.23207
G1 X-10.648 Y15.985 E1.27143
G1 X-11.417 Y16.166 E1.31085
G1 X-12.2 Y16.269 E1.35025
G1 X-12.817 Y16.293 E1.38105
G1 X-16.626 Y16.293 E1.57108
G1 X-17.415 Y16.253 E1.6105
G1 X-18.195 Y16.134 E1.64986
G1 X-18.96 Y15.936 E1.68929
G1 X-19.7 Y15.662 E1.72865
G1 X-20.409 Y15.314 E1.76806
G1 X-21.08 Y14.896 E1.8075
G1 X-21.704 Y14.413 E1.84687
G1 X-22.141 Y14.008 E1.87659
G1 X-22.258 Y13.891 E1.88485
G1 X-22.788 Y13.305 E1.92427
G1 X-23.255 Y12.669 E1.96363
G1 X-23.656 Y11.989 E2.00302
G1 X-23.986 Y11.271 E2.04244
G1 X-24.241 Y10.524 E2.08182
G1 X-24.42 Y9.755 E2.12121
G1 X-24.52 Y8.971 E2.16064
G1 X-24.543 Y8.376 E2.19035
G1 X-24.544 Y-8.288 E3.02172
G1 X-24.544 Y-8.377 E3.02616
G1 X-24.504 Y-9.165 E3.06552
G1 X-24.385 Y-9.946 E3.10494
G1 X-24.187 Y-10.71 E3.14431
G1 X-23.913 Y-11.451 E3.18373
G1 X-23.565 Y-12.16 E3.22313
G1 X-23.148 Y-12.83 E3.2625
G1 X-22.665 Y-13.455 E3.30191
G1 X-22.259 Y-13.892 E3.33167
G1 X-22.142 Y-14.009 E3.33992
G1 X-21.556 Y-14.539 E3.37934
G1 X-20.92 Y-15.006 E3.41871
G1 X-20.24 Y-15.407 E3.45809
G1 X-19.522 Y-15.737 E3.49752
G1 X-18.775 Y-15.992 E3.5369
G1 X-18.006 Y-16.171 E3.57629
G1 X-17.222 Y-16.271 E3.61572
G1 X-16.627 Y-16.294 E3.64543
G1 X16.627 Y-16.294 E5.30447
G1 X17.416 Y-16.254 E5.34389
G1 X18.196 Y-16.135 E5.38325
G1 X18.961 Y-15.937 E5.42268
G1 X19.701 Y-15.663 E5.46204
G1 X20.41 Y-15.315 E5.50145
G1 X21.081 Y-14.897 E5.54089
G1 X21.705 Y-14.414 E5.58026
G1 X22.142 Y-14.009 E5.60998
G1 X22.259 Y-13.892 E5.61824
G1 X22.789 Y-13.306 E5.65766
G1 X23.256 Y-12.67 E5.69702
G1 X23.657 Y-11.99 E5.73641
G1 X23.987 Y-11.272 E5.77583
G1 X24.242 Y-10.525 E5.81521
G1 X24.421 Y-9.756 E5.8546
G1 X24.521 Y-8.972 E5.89403
G1 X24.544 Y-8.377 E5.92374
G1 X24.544 Y8.377 E6.7596
G1 X24.504 Y9.166 E6.79901
G1 X24.385 Y9.946 E6.83838
G1 X24.187 Y10.711 E6.8778
G1 X23.913 Y11.451 E6.91717
G1 X23.565 Y12.16 E6.95657
G1 X23.147 Y12.831 E6.99601
G1 X22.664 Y13.455 E7.03538
G1 X22.259 Y13.892 E7.06511
G1 X22.142 Y14.009 E7.07336
G1 X21.556 Y14.539 E7.11278
G1 X20.92 Y15.006 E7.15215
G1 X20.24 Y15.407 E7.19153
G1 X19.522 Y15.737 E7.23095
G1 X18.775 Y15.992 E7.27033
G1 X18.006 Y16.171 E7.30973
G1 X17.222 Y16.271 E7.34916
G1 X16.627 Y16.294 E7.37886
G1 X13.165 Y16.294 E7.55158
G1 X12.509 Y16.266 E7.58434
G1 X12.059 Y16.228 E7.60687
G1 X11.276 Y16.122 E7.64629
G1 X10.508 Y15.937 E7.6857
G1 X9.763 Y15.676 E7.72509
G1 X9.048 Y15.34 E7.7645
G1 X8.371 Y14.934 E7.80388
G1 X7.738 Y14.462 E7.84328
G1 X7.201 Y13.973 E7.87951
G1 X5.497 Y12.27 E7.9997
G1 X4.968 Y11.684 E8.03909
G1 X4.5 Y11.048 E8.07848
G1 X4.099 Y10.368 E8.11787
G1 X3.769 Y9.65 E8.15729
G1 X3.513 Y8.903 E8.19669
G1 X3.334 Y8.134 E8.23608
G1 X3.234 Y7.351 E8.27546
G1 X3.213 Y6.561 E8.31489
G1 X3.273 Y5.774 E8.35427
G1 X3.411 Y4.996 E8.39369
G1 X3.628 Y4.237 E8.43307
G1 X3.812 Y3.751 E8.459
G1 X3.915 Y3.504 E8.47235
G1 X4.156 Y2.999 E8.50026
G1 X4.156 Y2.294 E8.53544
G0 F3600 X4.556 Y1.894
G1 F2400 X-4.556 Y1.894 E8.99004
G1 X-4.556 Y3.111 E9.05075
G1 X-4.283 Y3.658 E9.08125
G1 X-4.18 Y3.905 E9.0946
G1 X-3.921 Y4.629 E9.13297
G1 X-3.739 Y5.376 E9.17132
G1 X-3.636 Y6.139 E9.20974
G1 X-3.612 Y6.907 E9.24807
G1 X-3.668 Y7.675 E9.28649
G1 X-3.803 Y8.432 E9.32485
G1 X-4.016 Y9.171 E9.36322
G1 X-4.305 Y9.884 E9.4016
G1 X-4.666 Y10.563 E9.43997
G1 X-5.096 Y11.201 E9.47835
G1 X-5.779 Y11.987 E9.5303
G1 X-7.219 Y13.426 E9.63187
G1 X-7.757 Y13.914 E9.6681
G1 X-8.124 Y14.215 E9.69179
G1 X-8.744 Y14.671 E9.73018
G1 X-9.407 Y15.06 E9.76853
G1 X-10.107 Y15.379 E9.80691
G1 X-10.836 Y15.623 E9.84526
G1 X-11.587 Y15.79 E9.88365
G1 X-12.351 Y15.878 E9.92201
G1 X-12.817 Y15.893 E9.94528
G1 X-16.626 Y15.893 E10.13531
G1 X-17.394 Y15.853 E10.17368
G1 X-18.154 Y15.734 E10.21205
G1 X-18.897 Y15.536 E10.25042
G1 X-19.616 Y15.262 E10.2888
G1 X-20.302 Y14.915 E10.32716
G1 X-20.949 Y14.499 E10.36553
G1 X-21.549 Y14.018 E10.4039
G1 X-21.859 Y13.726 E10.42515
G1 X-21.976 Y13.609 E10.4334
G1 X-22.49 Y13.037 E10.47177
G1 X-22.943 Y12.415 E10.51016
G1 X-23.329 Y11.75 E10.54852
G1 X-23.644 Y11.048 E10.5869
G1 X-23.884 Y10.317 E10.62529
G1 X-24.047 Y9.566 E10.66363
G1 X-24.131 Y8.801 E10.70202
G1 X-24.143 Y8.376 E10.72324
G1 X-24.144 Y-8.288 E11.55461
G1 X-24.144 Y-8.377 E11.55905
G1 X-24.104 Y-9.145 E11.59741
G1 X-23.985 Y-9.904 E11.63574
G1 X-23.787 Y-10.648 E11.67415
G1 X-23.513 Y-11.367 E11.71254
G1 X-23.166 Y-12.053 E11.7509
G1 X-22.75 Y-12.7 E11.78927
G1 X-22.269 Y-13.3 E11.82764
G1 X-21.977 Y-13.61 E11.84888
G1 X-21.86 Y-13.727 E11.85714
G1 X-21.288 Y-14.241 E11.8955
G1 X-20.666 Y-14.694 E11.93389
G1 X-20.001 Y-15.08 E11.97225
G1 X-19.299 Y-15.395 E12.01064
G1 X-18.568 Y-15.635 E12.04903
G1 X-17.817 Y-15.798 E12.08737
G1 X-17.052 Y-15.882 E12.12576
G1 X-16.627 Y-15.894 E12.14697
G1 X16.627 Y-15.894 E13.80602
G1 X17.395 Y-15.854 E13.84439
G1 X18.155 Y-15.735 E13.88277
G1 X18.898 Y-15.537 E13.92113
G1 X19.617 Y-15.263 E13.95952
G1 X20.303 Y-14.916 E13.99787
G1 X20.95 Y-14.5 E14.03625
G1 X21.55 Y-14.019 E14.07461
G1 X21.86 Y-13.727 E14.09586
G1 X21.977 Y-13.61 E14.10411
G1 X22.491 Y-13.038 E14.14248
G1 X22.944 Y-12.416 E14.18087
G1 X23.33 Y-11.751 E14.21923
G1 X23.645 Y-11.049 E14.25762
G1 X23.885 Y-10.318 E14.296
G1 X24.048 Y-9.567 E14.33434
G1 X24.132 Y-8.802 E14.37274
G1 X24.144 Y-8.377 E14.39395
G1 X24.144 Y8.377 E15.22981
G1 X24.104 Y9.145 E15.26818
G1 X23.985 Y9.905 E15.30656
G1 X23.787 Y10.648 E15.34492
G1 X23.513 Y11.367 E15.38331
G1 X23.166 Y12.053 E15.42166
G1 X22.75 Y12.7 E15.46004
G1 X22.269 Y13.3 E15.4984
G1 X21.977 Y13.61 E15.51965
G1 X21.86 Y13.727 E15.5279
G1 X21.288 Y14.241 E15.56627
G1 X20.666 Y14.694 E15.60466
G1 X20.001 Y15.08 E15.64302
G1 X19.299 Y15.395 E15.68141
G1 X18.568 Y15.635 E15.71979
G1 X17.817 Y15.798 E15.75813
G1 X17.052 Y15.882 E15.79653
G1 X16.627 Y15.894 E15.81774
G1 X13.165 Y15.894 E15.99046
G1 X12.542 Y15.868 E16.02157
G1 X12.092 Y15.83 E16.0441
G1 X11.33 Y15.725 E16.08247
G1 X10.583 Y15.542 E16.12084
G1 X9.859 Y15.283 E16.15921
G1 X9.166 Y14.949 E16.19759
G1 X8.511 Y14.546 E16.23595
G1 X7.902 Y14.077 E16.2743
G1 X7.484 Y13.69 E16.30272
G1 X5.78 Y11.987 E16.42291
G1 X5.265 Y11.416 E16.46128
G1 X4.812 Y10.794 E16.49967
G1 X4.426 Y10.129 E16.53803
G1 X4.111 Y9.427 E16.57641
G1 X3.871 Y8.697 E16.61475
G1 X3.708 Y7.945 E16.65314
G1 X3.623 Y7.18 E16.69154
G1 X3.619 Y6.411 E16.72991
G1 X3.694 Y5.646 E16.76826
G1 X3.849 Y4.892 E16.80666
G1 X4.181 Y3.905 E16.85861
G1 X4.284 Y3.658 E16.87196
G1 X4.556 Y3.091 E16.90334
G1 X4.556 Y1.894 E16.96306
G0 F3600 X4.956 Y1.494
G1 F2400 X-4.956 Y1.494 E17.45757
G1 X-4.956 Y3.18 E17.54168
G1 X-4.652 Y3.812 E17.57667
G1 X-4.549 Y4.059 E17.59002
G1 X-4.299 Y4.764 E17.62734
G1 X-4.125 Y5.491 E17.66464
G1 X-4.029 Y6.233 E17.70196
G1 X-4.014 Y6.981 E17.73929
G1 X-4.078 Y7.726 E17.77659
G1 X-4.221 Y8.461 E17.81395
G1 X-4.442 Y9.175 E17.85124
G1 X-4.738 Y9.862 E17.88856
G1 X-5.106 Y10.514 E17.92591
G1 X-5.541 Y11.122 E17.96321
G1 X-6.062 Y11.704 E18.00218
G1 X-7.502 Y13.143 E18.10374
G1 X-8.011 Y13.604 E18.13801
G1 X-8.378 Y13.905 E18.16169
G1 X-8.981 Y14.348 E18.19902
G1 X-9.628 Y14.724 E18.23635
G1 X-10.311 Y15.029 E18.27367
G1 X-11.023 Y15.259 E18.311
G1 X-11.755 Y15.412 E18.34831
G1 X-12.817 Y15.493 E18.40144
G1 X-16.626 Y15.493 E18.59148
G1 X-17.373 Y15.453 E18.6288
G1 X-18.111 Y15.334 E18.66609
G1 X-18.833 Y15.136 E18.70344
G1 X-19.529 Y14.863 E18.74074
G1 X-20.192 Y14.516 E18.77807
G1 X-20.815 Y14.101 E18.81542
G1 X-21.576 Y13.443 E18.86561
G1 X-21.693 Y13.326 E18.87387
G1 X-22.193 Y12.769 E18.91121
G1 X-22.63 Y12.163 E18.94848
G1 X-23.001 Y11.513 E18.98582
G1 X-23.3 Y10.827 E19.02316
G1 X-23.524 Y10.113 E19.06049
G1 X-23.671 Y9.38 E19.09779
G1 X-23.743 Y8.376 E19.14801
G1 X-23.744 Y-8.288 E19.97938
G1 X-23.744 Y-8.377 E19.98382
G1 X-23.704 Y-9.124 E20.02114
G1 X-23.585 Y-9.862 E20.05843
G1 X-23.387 Y-10.584 E20.09578
G1 X-23.114 Y-11.28 E20.13308
G1 X-22.768 Y-11.943 E20.17039
G1 X-22.353 Y-12.565 E20.2077
G1 X-21.694 Y-13.327 E20.25796
G1 X-21.577 Y-13.444 E20.26621
G1 X-21.02 Y-13.944 E20.30356
G1 X-20.414 Y-14.381 E20.34083
G1 X-19.764 Y-14.752 E20.37817
G1 X-19.078 Y-15.051 E20.41551
G1 X-18.364 Y-15.275 E20.45284
G1 X-17.631 Y-15.422 E20.49014
G1 X-16.627 Y-15.494 E20.54035
G1 X16.627 Y-15.494 E22.1994
G1 X17.374 Y-15.454 E22.23672
G1 X18.112 Y-15.335 E22.27402
G1 X18.834 Y-15.137 E22.31137
G1 X19.53 Y-14.864 E22.34867
G1 X20.193 Y-14.517 E22.386
G1 X20.816 Y-14.102 E22.42335
G1 X21.577 Y-13.444 E22.47354
G1 X21.694 Y-13.327 E22.48179
G1 X22.194 Y-12.77 E22.51914
G1 X22.631 Y-12.164 E22.55641
G1 X23.002 Y-11.514 E22.59375
G1 X23.301 Y-10.828 E22.63109
G1 X23.525 Y-10.114 E22.66842
G1 X23.672 Y-9.381 E22.70572
G1 X23.744 Y-8.377 E22.75594
G1 X23.744 Y8.377 E23.5918
G1 X23.704 Y9.124 E23.62912
G1 X23.585 Y9.862 E23.66641
G1 X23.387 Y10.584 E23.70376
G1 X23.114 Y11.28 E23.74106
G1 X22.767 Y11.943 E23.7784
G1 X22.352 Y12.566 E23.81574
G1 X21.694 Y13.327 E23.86593
G1 X21.577 Y13.444 E23.87419
G1 X21.02 Y13.944 E23.91153
G1 X20.414 Y14.381 E23.9488
G1 X19.764 Y14.752 E23.98614
G1 X19.078 Y15.051 E24.02348
G1 X18.364 Y15.275 E24.06081
G1 X17.631 Y15.422 E24.09811
G1 X16.627 Y15.494 E24.14833
G1 X13.165 Y15.494 E24.32105
G1 X12.576 Y15.469 E24.35046
G1 X12.126 Y15.431 E24.37299
G1 X11.385 Y15.328 E24.41031
G1 X10.659 Y15.147 E24.44764
G1 X9.957 Y14.89 E24.48494
G1 X9.286 Y14.559 E24.52227
G1 X8.654 Y14.158 E24.55961
G1 X8.069 Y13.692 E24.59692
G1 X7.767 Y13.407 E24.61764
G1 X6.063 Y11.704 E24.73783
G1 X5.563 Y11.148 E24.77514
G1 X5.125 Y10.541 E24.81248
G1 X4.754 Y9.892 E24.84978
G1 X4.455 Y9.206 E24.88711
G1 X4.231 Y8.492 E24.92444
G1 X4.084 Y7.759 E24.96174
G1 X4.016 Y7.014 E24.99906
G1 X4.028 Y6.266 E25.03639
G1 X4.12 Y5.523 E25.07374
G1 X4.29 Y4.795 E25.11103
G1 X4.55 Y4.059 E25.14998
G1 X4.653 Y3.812 E25.16333
G1 X4.956 Y3.184 E25.19812
G1 X4.956 Y1.494 E25.28243
G0 F3600 X5.356 Y3.283
G1 F2400 X5.356 Y1.094 E25.39164
G1 X-5.356 Y1.094 E25.92606
G1 X-5.356 Y3.298 E26.03602
G1 X-5.228 Y3.519 E26.04876
G1 X-5.021 Y3.966 E26.07334
G1 X-4.918 Y4.213 E26.08669
G1 X-4.676 Y4.898 E26.12294
G1 X-4.511 Y5.605 E26.15916
G1 X-4.424 Y6.326 E26.19539
G1 X-4.417 Y7.052 E26.23161
G1 X-4.49 Y7.775 E26.26786
G1 X-4.641 Y8.485 E26.30408
G1 X-4.87 Y9.175 E26.34035
G1 X-5.174 Y9.835 E26.3766
G1 X-5.548 Y10.457 E26.41281
G1 X-5.988 Y11.035 E26.44905
G1 X-6.345 Y11.422 E26.47532
G1 X-7.785 Y12.861 E26.57688
G1 X-8.265 Y13.295 E26.60917
G1 X-8.632 Y13.596 E26.63285
G1 X-9.218 Y14.025 E26.66908
G1 X-9.847 Y14.387 E26.70529
G1 X-10.513 Y14.678 E26.74155
G1 X-11.207 Y14.894 E26.77781
G1 X-11.92 Y15.032 E26.81404
G1 X-12.817 Y15.093 E26.8589
G1 X-16.626 Y15.093 E27.04893
G1 X-17.351 Y15.053 E27.08516
G1 X-18.068 Y14.934 E27.12142
G1 X-18.767 Y14.736 E27.15766
G1 X-19.44 Y14.463 E27.19389
G1 X-20.079 Y14.118 E27.23012
G1 X-20.676 Y13.704 E27.26637
G1 X-21.293 Y13.16 E27.30741
G1 X-21.41 Y13.043 E27.31566
G1 X-21.894 Y12.502 E27.35188
G1 X-22.317 Y11.911 E27.38814
G1 X-22.671 Y11.277 E27.42436
G1 X-22.954 Y10.608 E27.4606
G1 X-23.162 Y9.912 E27.49685
G1 X-23.292 Y9.197 E27.5331
G1 X-23.343 Y8.376 E27.57414
G1 X-23.344 Y-8.288 E28.40551
G1 X-23.344 Y-8.377 E28.40995
G1 X-23.304 Y-9.102 E28.44618
G1 X-23.185 Y-9.818 E28.48239
G1 X-22.987 Y-10.517 E28.51863
G1 X-22.714 Y-11.19 E28.55487
G1 X-22.369 Y-11.83 E28.59114
G1 X-21.956 Y-12.427 E28.62736
G1 X-21.411 Y-13.044 E28.66843
G1 X-21.294 Y-13.161 E28.67668
G1 X-20.753 Y-13.645 E28.7129
G1 X-20.162 Y-14.068 E28.74916
G1 X-19.528 Y-14.422 E28.78539
G1 X-18.859 Y-14.705 E28.82163
G1 X-18.163 Y-14.913 E28.85787
G1 X-17.448 Y-15.043 E28.89412
G1 X-16.627 Y-15.094 E28.93516
G1 X16.627 Y-15.094 E30.59421
G1 X17.352 Y-15.054 E30.63044
G1 X18.069 Y-14.935 E30.6667
G1 X18.768 Y-14.737 E30.70294
G1 X19.441 Y-14.464 E30.73917
G1 X20.08 Y-14.119 E30.7754
G1 X20.677 Y-13.705 E30.81165
G1 X21.294 Y-13.161 E30.85269
G1 X21.411 Y-13.044 E30.86094
G1 X21.895 Y-12.503 E30.89716
G1 X22.318 Y-11.912 E30.93342
G1 X22.672 Y-11.278 E30.96964
G1 X22.955 Y-10.609 E31.00588
G1 X23.163 Y-9.913 E31.04213
G1 X23.293 Y-9.198 E31.07838
G1 X23.344 Y-8.377 E31.11942
G1 X23.344 Y8.377 E31.95528
G1 X23.304 Y9.102 E31.99151
G1 X23.185 Y9.819 E32.02777
G1 X22.987 Y10.518 E32.06401
G1 X22.714 Y11.191 E32.10025
G1 X22.369 Y11.83 E32.13648
G1 X21.955 Y12.427 E32.17272
G1 X21.411 Y13.044 E32.21376
G1 X21.294 Y13.161 E32.22201
G1 X20.753 Y13.645 E32.25823
G1 X20.162 Y14.068 E32.29449
G1 X19.528 Y14.422 E32.33072
G1 X18.859 Y14.705 E32.36696
G1 X18.163 Y14.913 E32.4032
G1 X17.448 Y15.043 E32.43945
G1 X16.627 Y15.094 E32.48049
G1 X13.165 Y15.094 E32.65321
G1 X12.61 Y15.071 E32.68092
G1 X12.16 Y15.033 E32.70346
G1 X11.44 Y14.932 E32.73973
G1 X10.736 Y14.752 E32.77598
G1 X10.057 Y14.497 E32.81217
G1 X9.409 Y14.168 E32.84842
G1 X8.801 Y13.77 E32.88468
G1 X8.049 Y13.124 E32.93414
G1 X6.345 Y11.421 E33.05433
G1 X5.861 Y10.88 E33.09054
G1 X5.438 Y10.289 E33.1268
G1 X5.084 Y9.656 E33.16299
G1 X4.8 Y8.987 E33.19925
G1 X4.593 Y8.291 E33.23547
G1 X4.463 Y7.576 E33.27173
G1 X4.412 Y6.851 E33.30799
G1 X4.441 Y6.126 E33.34419
G1 X4.55 Y5.408 E33.38042
G1 X4.737 Y4.706 E33.41666
G1 X4.919 Y4.213 E33.44288
G1 X5.022 Y3.966 E33.45623
G1 X5.338 Y3.312 E33.49247
G1 X5.356 Y3.283 E33.49417
G0 F3600 X5.756 Y3.396
G1 F2400 X5.756 Y0.694 E33.62898
G1 X-5.756 Y0.694 E34.20331
G1 X-5.756 Y3.404 E34.33852
G1 X-5.391 Y4.12 E34.37861
G1 X-5.288 Y4.367 E34.39196
G1 X-5.054 Y5.031 E34.42709
G1 X-4.897 Y5.717 E34.4622
G1 X-4.819 Y6.417 E34.49734
G1 X-4.821 Y7.121 E34.53246
G1 X-4.903 Y7.82 E34.56757
G1 X-5.063 Y8.505 E34.60267
G1 X-5.3 Y9.168 E34.63779
G1 X-5.61 Y9.8 E34.67291
G1 X-5.991 Y10.393 E34.70808
G1 X-6.627 Y11.139 E34.75698
G1 X-8.067 Y12.578 E34.85855
G1 X-8.518 Y12.986 E34.88889
G1 X-8.885 Y13.287 E34.91257
G1 X-9.454 Y13.702 E34.94771
G1 X-10.066 Y14.049 E34.98281
G1 X-10.714 Y14.325 E35.01795
G1 X-11.389 Y14.526 E35.05308
G1 X-12.082 Y14.649 E35.0882
G1 X-12.817 Y14.693 E35.12493
G1 X-16.626 Y14.693 E35.31496
G1 X-17.329 Y14.653 E35.35009
G1 X-18.023 Y14.534 E35.38522
G1 X-18.698 Y14.336 E35.42032
G1 X-19.347 Y14.064 E35.45542
G1 X-19.961 Y13.719 E35.49056
G1 X-20.532 Y13.308 E35.52566
G1 X-21.01 Y12.877 E35.55777
G1 X-21.127 Y12.76 E35.56603
G1 X-21.596 Y12.235 E35.60115
G1 X-22.002 Y11.66 E35.63626
G1 X-22.34 Y11.042 E35.67141
G1 X-22.607 Y10.391 E35.70651
G1 X-22.797 Y9.713 E35.74164
G1 X-22.91 Y9.018 E35.77677
G1 X-22.943 Y8.376 E35.80884
G1 X-22.944 Y-8.288 E36.64021
G1 X-22.944 Y-8.377 E36.64465
G1 X-22.904 Y-9.079 E36.67973
G1 X-22.785 Y-9.773 E36.71486
G1 X-22.587 Y-10.449 E36.75
G1 X-22.315 Y-11.098 E36.78511
G1 X-21.971 Y-11.712 E36.82022
G1 X-21.559 Y-12.283 E36.85535
G1 X-21.128 Y-12.761 E36.88746
G1 X-21.011 Y-12.878 E36.89572
G1 X-20.486 Y-13.347 E36.93084
G1 X-19.911 Y-13.753 E36.96596
G1 X-19.293 Y-14.091 E37.0011
G1 X-18.642 Y-14.358 E37.0362
G1 X-17.964 Y-14.548 E37.07133
G1 X-17.269 Y-14.661 E37.10646
G1 X-16.627 Y-14.694 E37.13853
G1 X16.627 Y-14.694 E38.79758
G1 X17.33 Y-14.654 E38.83271
G1 X18.024 Y-14.535 E38.86784
G1 X18.699 Y-14.337 E38.90293
