;FLAVOR:Marlin
;TIME:3596
;Filament used: 4.36457m
;Layer height: 0.2
;MINX:-54.832
;MINY:-49.39
;MINZ:0.3
;MAXX:53.225
;MAXY:57.463
;MAXZ:23.9
;Generated with Cura_SteamEngine 4.1.0
M104 S200
M105
M109 S200
M82 ;absolute extrusion mode
G28 ;Home
G1 Z15.0 F6000 ;Move the platform down 15mm
;Prime the extruder
G92 E0
G1 F200 E3
G92 E0
G92 E0
G92 E0
G1 F1500 E-5
;LAYER_COUNT:119
;LAYER:0
M107
G0 F3600 X-26.704 Y-9.544 Z0.3
;TYPE:SKIRT
G1 F1500 E0
G1 F2400 X-32.946 Y-9.544 E0.31141
G1 X-33.013 Y-9.358 E0.32128
G1 X-33.154 Y-8.934 E0.34357
G1 X-33.291 Y-8.484 E0.36704
G1 X-33.419 Y-8.022 E0.39096
G1 X-33.552 Y-7.506 E0.41754
G1 X-33.722 Y-6.794 E0.45406
G1 X-33.799 Y-6.443 E0.47199
G1 X-33.94 Y-5.753 E0.50712
G1 X-34.03 Y-5.274 E0.53144
G1 X-34.143 Y-4.641 E0.56352
G1 X-34.22 Y-4.18 E0.58684
G1 X-34.35 Y-3.334 E0.62954
G1 X-34.351 Y-3.334 E0.62959
G1 X-34.425 Y-2.817 E0.65565
G1 X-34.583 Y-1.623 E0.71573
G1 X-34.706 Y-.577 E0.76828
G1 X-34.821 Y0.499 E0.82227
G1 X-34.82 Y0.499 E0.82232
G1 X-34.893 Y1.243 E0.85961
G1 X-35.022 Y2.705 E0.93284
G1 X-35.192 Y4.969 E1.04611
G1 X-35.294 Y6.6 E1.12764
G1 X-35.424 Y9.066 E1.25084
G1 X-35.574 Y12.786 E1.43658
G1 X-35.612 Y13.956 E1.49498
G1 X-35.684 Y16.595 E1.62669
G1 X-35.743 Y19.339 E1.76362
G1 X-35.808 Y23.616 E1.97702
G1 X-35.861 Y29.82 E2.28655
G1 X-35.886 Y39.988 E2.79384
G1 X-35.519 Y40.487 E2.82474
G1 X-35.118 Y41.167 E2.86413
G1 X-34.788 Y41.885 E2.90355
G1 X-34.533 Y42.632 E2.94293
G1 X-34.354 Y43.401 E2.98232
G1 X-34.254 Y44.185 E3.02175
G1 X-34.231 Y44.782 E3.05156
G1 X-34.232 Y49.548 E3.28934
G1 X-34.272 Y50.336 E3.3287
G1 X-34.392 Y51.117 E3.36812
G1 X-34.59 Y51.881 E3.4075
G1 X-34.864 Y52.622 E3.44691
G1 X-35.212 Y53.331 E3.48632
G1 X-35.629 Y54.001 E3.52569
G1 X-36.113 Y54.626 E3.56513
G1 X-36.517 Y55.061 E3.59474
G1 X-36.634 Y55.178 E3.603
G1 X-37.22 Y55.708 E3.64242
G1 X-37.856 Y56.175 E3.68178
G1 X-38.536 Y56.576 E3.72117
G1 X-39.254 Y56.906 E3.76059
G1 X-40.001 Y57.161 E3.79997
G1 X-40.77 Y57.34 E3.83936
G1 X-41.554 Y57.44 E3.87879
G1 X-42.149 Y57.463 E3.9085
G1 X-46.915 Y57.463 E4.14628
G1 X-47.704 Y57.423 E4.18569
G1 X-48.484 Y57.304 E4.22506
G1 X-49.249 Y57.106 E4.26448
G1 X-49.989 Y56.832 E4.30385
G1 X-50.698 Y56.484 E4.34325
G1 X-51.369 Y56.066 E4.38269
G1 X-51.993 Y55.583 E4.42206
G1 X-52.43 Y55.178 E4.45178
G1 X-52.547 Y55.061 E4.46004
G1 X-53.077 Y54.475 E4.49946
G1 X-53.544 Y53.839 E4.53882
G1 X-53.945 Y53.159 E4.57821
G1 X-54.275 Y52.441 E4.61763
G1 X-54.53 Y51.694 E4.65701
G1 X-54.709 Y50.925 E4.6964
G1 X-54.809 Y50.141 E4.73583
G1 X-54.832 Y49.546 E4.76554
G1 X-54.832 Y44.774 E5.00362
G1 X-54.792 Y43.985 E5.04303
G1 X-54.673 Y43.205 E5.0824
G1 X-54.475 Y42.44 E5.12182
G1 X-54.201 Y41.7 E5.16119
G1 X-53.853 Y40.991 E5.20059
G1 X-53.435 Y40.32 E5.24003
G1 X-53.189 Y40.002 E5.26009
G1 X-53.169 Y30.554 E5.73145
G1 X-53.169 Y30.509 E5.7337
G1 X-53.12 Y24.244 E6.04627
G1 X-53.119 Y24.194 E6.04877
G1 X-53.056 Y19.764 E6.2698
G1 X-53.055 Y19.72 E6.272
G1 X-52.999 Y16.897 E6.41286
G1 X-52.998 Y16.849 E6.41526
G1 X-52.927 Y14.128 E6.55106
G1 X-52.926 Y14.083 E6.5533
G1 X-52.85 Y11.698 E6.67235
G1 X-52.848 Y11.632 E6.67565
G1 X-52.735 Y8.825 E6.8158
G1 X-52.731 Y8.74 E6.82005
G1 X-52.594 Y6.062 E6.95383
G1 X-52.59 Y5.993 E6.95728
G1 X-52.487 Y4.28 E7.04289
G1 X-52.481 Y4.185 E7.04764
G1 X-52.303 Y1.724 E7.17074
G1 X-52.294 Y1.619 E7.176
G1 X-52.159 Y0.049 E7.25462
G1 X-52.149 Y-0.06 E7.26008
G1 X-51.937 Y-2.177 E7.36622
G1 X-51.926 Y-2.282 E7.37149
G1 X-51.804 Y-3.354 E7.42532
G1 X-51.789 Y-3.48 E7.43165
G1 X-51.588 Y-5.023 E7.50928
G1 X-51.574 Y-5.122 E7.51427
G1 X-51.411 Y-6.259 E7.57157
G1 X-51.385 Y-6.425 E7.57995
G1 X-51.15 Y-7.846 E7.65181
G1 X-51.118 Y-8.027 E7.66098
G1 X-50.862 Y-9.376 E7.72948
G1 X-50.829 Y-9.544 E7.73803
G1 X-50.673 Y-10.278 E7.77546
G1 X-50.647 Y-10.393 E7.78135
G1 X-50.493 Y-11.067 E7.81584
G1 X-50.461 Y-11.201 E7.82271
G1 X-50.273 Y-11.962 E7.86182
G1 X-50.235 Y-12.11 E7.86944
G1 X-50.038 Y-12.845 E7.90741
G1 X-50.004 Y-12.969 E7.91382
G1 X-49.842 Y-13.536 E7.94324
G1 X-49.779 Y-13.745 E7.95413
G1 X-49.593 Y-14.333 E7.9849
G1 X-49.548 Y-14.471 E7.99214
G1 X-49.328 Y-15.124 E8.02652
G1 X-49.243 Y-15.363 E8.03917
G1 X-49.004 Y-16.003 E8.07326
G1 X-48.93 Y-16.194 E8.08348
G1 X-48.687 Y-16.796 E8.11586
G1 X-48.577 Y-17.055 E8.1299
G1 X-48.315 Y-17.642 E8.16197
G1 X-48.183 Y-17.922 E8.17742
G1 X-47.896 Y-18.502 E8.2097
G1 X-47.757 Y-18.769 E8.22472
G1 X-47.453 Y-19.328 E8.25647
G1 X-47.267 Y-19.653 E8.27515
G1 X-46.951 Y-20.173 E8.30551
G1 X-46.738 Y-20.504 E8.32514
G1 X-46.412 Y-20.984 E8.35409
G1 X-46.183 Y-21.304 E8.37372
G1 X-45.837 Y-21.762 E8.40236
G1 X-45.534 Y-22.137 E8.42641
G1 X-45.161 Y-22.572 E8.455
G1 X-44.842 Y-22.922 E8.47863
G1 X-44.469 Y-23.307 E8.50537
G1 X-44.065 Y-23.696 E8.53335
G1 X-43.632 Y-24.083 E8.56232
G1 X-43.168 Y-24.466 E8.59234
G1 X-42.926 Y-24.651 E8.60754
G1 X-42.926 Y-27.395 E8.74444
G1 X-42.925 Y-27.54 E8.75167
G1 X-42.912 Y-28.238 E8.7865
G1 X-42.895 Y-28.617 E8.80543
G1 X-42.856 Y-29.196 E8.83438
G1 X-42.824 Y-29.55 E8.85211
G1 X-42.756 Y-30.15 E8.88224
G1 X-42.711 Y-30.485 E8.8991
G1 X-42.617 Y-31.082 E8.92925
G1 X-42.549 Y-31.456 E8.94822
G1 X-42.426 Y-32.048 E8.97838
G1 X-42.348 Y-32.383 E8.99554
G1 X-42.2 Y-32.965 E9.0255
G1 X-42.097 Y-33.332 E9.04452
G1 X-41.918 Y-33.915 E9.07495
G1 X-41.806 Y-34.254 E9.09276
G1 X-41.607 Y-34.81 E9.12222
G1 X-41.448 Y-35.218 E9.14407
G1 X-41.107 Y-36.025 E9.18778
G1 X-40.849 Y-36.574 E9.21804
G1 X-40.376 Y-37.488 E9.26938
G1 X-39.978 Y-38.17 E9.30878
G1 X-39.513 Y-38.808 E9.34817
G1 X-38.986 Y-39.396 E9.38756
G1 X-38.403 Y-39.928 E9.42694
G1 X-37.545 Y-40.541 E9.47954
G1 X-37.451 Y-40.599 E9.48505
G1 X-36.759 Y-40.979 E9.52444
G1 X-36.032 Y-41.287 E9.56383
G1 X-35.277 Y-41.52 E9.60325
G1 X-34.503 Y-41.676 E9.64264
G1 X-33.364 Y-41.761 E9.69963
G1 X-31.632 Y-41.763 E9.78604
G1 X-31.565 Y-41.763 E9.78938
G1 X-29.809 Y-41.75 E9.87699
G1 X22.71 Y-41.749 E12.49717
G1 X24.466 Y-41.764 E12.58478
G1 X24.547 Y-41.764 E12.58882
G1 X26.276 Y-41.761 E12.67508
G1 X27.064 Y-41.72 E12.71445
G1 X27.845 Y-41.599 E12.75388
G1 X28.609 Y-41.4 E12.79327
G1 X29.349 Y-41.124 E12.83267
G1 X30.264 Y-40.656 E12.88394
G1 X30.356 Y-40.601 E12.88929
G1 X31.013 Y-40.162 E12.92871
G1 X31.621 Y-39.659 E12.96808
G1 X32.176 Y-39.097 E13.00749
G1 X32.671 Y-38.481 E13.04691
G1 X33.189 Y-37.663 E13.09522
G1 X33.449 Y-37.19 E13.12215
G1 X33.668 Y-36.761 E13.14618
G1 X34.052 Y-35.947 E13.19108
G1 X34.295 Y-35.374 E13.22213
G1 X34.659 Y-34.41 E13.27354
G1 X34.815 Y-33.955 E13.29754
G1 X34.99 Y-33.388 E13.32714
G1 X35.089 Y-33.041 E13.34514
G1 X35.24 Y-32.457 E13.37524
G1 X35.32 Y-32.114 E13.39281
G1 X35.447 Y-31.512 E13.4235
G1 X35.513 Y-31.161 E13.44132
G1 X35.609 Y-30.574 E13.471
G1 X35.66 Y-30.207 E13.48948
G1 X35.728 Y-29.616 E13.51916
G1 X35.758 Y-29.3 E13.535
G1 X35.804 Y-28.679 E13.56607
G1 X35.823 Y-28.258 E13.58709
G1 X35.835 Y-27.654 E13.61723
G1 X35.837 Y-27.499 E13.62496
G1 X35.837 Y-26.296 E13.68498
G1 X35.882 Y-26.281 E13.68735
G1 X36.55 Y-26.045 E13.72269
G1 X36.855 Y-25.93 E13.73896
G1 X37.501 Y-25.671 E13.77368
G1 X37.828 Y-25.531 E13.79143
G1 X38.439 Y-25.253 E13.82491
G1 X38.75 Y-25.103 E13.84214
G1 X39.329 Y-24.808 E13.87456
G1 X39.646 Y-24.637 E13.89253
G1 X40.217 Y-24.312 E13.92531
G1 X40.523 Y-24.129 E13.9431
G1 X40.984 Y-23.838 E13.9703
G1 X41.253 Y-23.66 E13.98639
G1 X41.777 Y-23.298 E14.01816
G1 X42.048 Y-23.102 E14.03485
G1 X42.536 Y-22.733 E14.06537
G1 X42.81 Y-22.516 E14.08281
G1 X43.284 Y-22.123 E14.11353
G1 X43.55 Y-21.892 E14.1311
G1 X44.008 Y-21.476 E14.16197
G1 X44.253 Y-21.243 E14.17884
G1 X44.679 Y-20.821 E14.20876
G1 X44.912 Y-20.581 E14.22544
G1 X45.328 Y-20.132 E14.25598
G1 X45.549 Y-19.883 E14.27259
G1 X45.94 Y-19.423 E14.30271
G1 X46.133 Y-19.187 E14.31792
G1 X46.498 Y-18.722 E14.34741
G1 X46.694 Y-18.46 E14.36374
G1 X47.045 Y-17.972 E14.39373
G1 X47.197 Y-17.754 E14.40699
G1 X47.53 Y-17.256 E14.43687
G1 X47.704 Y-16.984 E14.45298
G1 X48.022 Y-16.463 E14.48344
G1 X48.156 Y-16.234 E14.49667
G1 X48.449 Y-15.715 E14.52641
G1 X48.574 Y-15.485 E14.53947
G1 X48.856 Y-14.944 E14.5699
G1 X48.966 Y-14.725 E14.58213
G1 X49.231 Y-14.175 E14.61259
G1 X49.335 Y-13.95 E14.62496
G1 X49.585 Y-13.386 E14.65573
G1 X49.668 Y-13.191 E14.66631
G1 X49.904 Y-12.617 E14.69727
G1 X49.992 Y-12.392 E14.70932
G1 X50.212 Y-11.806 E14.74055
G1 X50.281 Y-11.616 E14.75064
G1 X50.488 Y-11.018 E14.78221
G1 X50.551 Y-10.828 E14.79219
G1 X50.746 Y-10.214 E14.82434
G1 X50.799 Y-10.041 E14.83336
G1 X50.979 Y-9.425 E14.86538
G1 X51.025 Y-9.26 E14.87393
G1 X51.195 Y-8.627 E14.90663
G1 X51.237 Y-8.465 E14.91497
G1 X51.395 Y-7.822 E14.94801
G1 X51.428 Y-7.68 E14.95528
G1 X51.576 Y-7.025 E14.98878
G1 X51.605 Y-6.893 E14.99553
G1 X51.744 Y-6.224 E15.02962
G1 X51.775 Y-6.065 E15.0377
G1 X51.902 Y-5.383 E15.07231
G1 X51.922 Y-5.274 E15.07784
G1 X52.04 Y-4.586 E15.11266
G1 X52.058 Y-4.471 E15.11847
G1 X52.168 Y-3.767 E15.15402
G1 X52.184 Y-3.661 E15.15937
G1 X52.272 Y-3.042 E15.19056
G1 X52.285 Y-2.95 E15.19519
G1 X52.362 Y-2.358 E15.22498
G1 X52.375 Y-2.249 E15.23045
G1 X52.515 Y-1.04 E15.29117
G1 X52.531 Y-.89 E15.2987
G1 X52.651 Y0.358 E15.36125
G1 X52.662 Y0.476 E15.36716
G1 X52.766 Y1.762 E15.43153
G1 X52.774 Y1.876 E15.43723
G1 X52.862 Y3.205 E15.50368
G1 X52.867 Y3.295 E15.50818
G1 X52.942 Y4.669 E15.57683
G1 X52.946 Y4.748 E15.58078
G1 X53.009 Y6.166 E15.65159
G1 X53.012 Y6.241 E15.65534
G1 X53.063 Y7.708 E15.72857
G1 X53.065 Y7.774 E15.73186
G1 X53.12 Y9.864 E15.83617
G1 X53.175 Y13.201 E16.00268
G1 X53.176 Y13.305 E16.00786
G1 X53.224 Y28.178 E16.74989
G1 X53.224 Y28.202 E16.75108
G1 X53.225 Y43.294 E17.50403
G1 X53.185 Y44.083 E17.54344
G1 X53.066 Y44.864 E17.58285
G1 X52.868 Y45.628 E17.62223
G1 X52.594 Y46.369 E17.66164
G1 X52.246 Y47.078 E17.70105
G1 X51.829 Y47.748 E17.74042
G1 X51.346 Y48.373 E17.77983
G1 X50.964 Y48.787 E17.80793
G1 X50.847 Y48.905 E17.81622
G1 X50.263 Y49.437 E17.85563
G1 X49.629 Y49.907 E17.89501
G1 X48.95 Y50.311 E17.93443
G1 X48.234 Y50.643 E17.9738
G1 X47.488 Y50.902 E18.0132
G1 X46.719 Y51.084 E18.05262
G1 X45.936 Y51.188 E18.09203
G1 X45.308 Y51.213 E18.12339
G1 X44.69 Y51.213 E18.15422
G1 X43.901 Y51.173 E18.19363
G1 X43.121 Y51.054 E18.233
G1 X42.356 Y50.856 E18.27242
G1 X41.616 Y50.582 E18.31179
G1 X40.907 Y50.234 E18.35119
G1 X40.236 Y49.816 E18.39063
G1 X39.612 Y49.333 E18.43
G1 X39.175 Y48.928 E18.45973
G1 X39.058 Y48.811 E18.46798
G1 X38.528 Y48.225 E18.5074
G1 X38.061 Y47.589 E18.54677
G1 X37.66 Y46.909 E18.58615
G1 X37.33 Y46.191 E18.62557
G1 X37.075 Y45.444 E18.66495
G1 X36.896 Y44.675 E18.70434
G1 X36.796 Y43.891 E18.74378
G1 X36.773 Y43.296 E18.77348
G1 X36.773 Y31.835 E19.34527
G1 X36.477 Y31.191 E19.38063
G1 X36.222 Y30.444 E19.42001
G1 X36.043 Y29.675 E19.45941
G1 X35.943 Y28.891 E19.49884
G1 X35.92 Y28.31 E19.52785
G1 X35.899 Y16.27 E20.12852
G1 X35.849 Y11.757 E20.35369
G1 X35.85 Y11.757 E20.35374
G1 X35.81 Y9.752 E20.45379
G1 X35.809 Y9.752 E20.45384
G1 X35.732 Y7.181 E20.58217
G1 X35.68 Y5.931 E20.64458
G1 X35.61 Y4.564 E20.71287
G1 X35.536 Y3.405 E20.77081
G1 X35.444 Y2.217 E20.83026
G1 X35.346 Y1.143 E20.88407
G1 X35.225 Y0.049 E20.93898
G1 X35.172 Y-.375 E20.9603
G1 X35.095 Y-.944 E20.98894
G1 X35.028 Y-1.394 E21.01164
G1 X34.926 Y-2.019 E21.04323
G1 X34.843 Y-2.483 E21.06675
G1 X34.734 Y-3.042 E21.09516
G1 X34.624 Y-3.55 E21.1211
G1 X34.516 Y-4.006 E21.14448
G1 X34.41 Y-4.42 E21.1658
G1 X34.272 Y-4.914 E21.19139
G1 X34.174 Y-5.237 E21.20823
G1 X34.032 Y-5.664 E21.23068
G1 X33.902 Y-6.024 E21.24977
G1 X33.784 Y-6.326 E21.26595
G1 X33.651 Y-6.637 E21.28282
G1 X33.52 Y-6.92 E21.29838
G1 X33.369 Y-7.223 E21.31527
G1 X33.234 Y-7.474 E21.32949
G1 X33.104 Y-7.695 E21.34228
G1 X32.975 Y-7.896 E21.3542
G1 X32.833 Y-8.102 E21.36668
G1 X32.703 Y-8.275 E21.37748
G1 X32.577 Y-8.43 E21.38744
G1 X32.421 Y-8.605 E21.39914
G1 X32.271 Y-8.761 E21.40993
G1 X32.153 Y-8.873 E21.41805
G1 X32.016 Y-8.992 E21.4271
G1 X31.867 Y-9.11 E21.43659
G1 X31.678 Y-9.247 E21.44823
G1 X31.532 Y-9.343 E21.45695
G1 X31.324 Y-9.465 E21.46898
G1 X31.123 Y-9.571 E21.48032
G1 X30.907 Y-9.672 E21.49221
G1 X30.656 Y-9.777 E21.50579
G1 X30.433 Y-9.857 E21.51761
G1 X30.259 Y-9.912 E21.52671
G1 X30.068 Y-9.847 E21.53678
G1 X29.299 Y-9.668 E21.57617
G1 X28.515 Y-9.568 E21.6156
G1 X27.92 Y-9.545 E21.64531
G1 X-26.704 Y-9.544 E24.37051
G0 F3600 X-26.704 Y-9.944
G1 F2400 X-33.223 Y-9.944 E24.69574
G1 X-33.24 Y-9.903 E24.69796
G1 X-33.389 Y-9.496 E24.71958
G1 X-33.536 Y-9.05 E24.74301
G1 X-33.674 Y-8.598 E24.76659
G1 X-33.815 Y-8.088 E24.79299
G1 X-33.963 Y-7.51 E24.82275
G1 X-34.106 Y-6.913 E24.85338
G1 X-34.19 Y-6.53 E24.87294
G1 X-34.324 Y-5.872 E24.90644
G1 X-34.423 Y-5.348 E24.93305
G1 X-34.538 Y-4.706 E24.96559
G1 X-34.622 Y-4.203 E24.99103
G1 X-34.746 Y-3.395 E25.03181
G1 X-34.809 Y-2.956 E25.05394
G1 X-34.994 Y-1.561 E25.12415
G1 X-35.094 Y-.707 E25.16704
G1 X-35.224 Y0.518 E25.2285
G1 X-35.291 Y1.204 E25.26289
G1 X-35.413 Y2.575 E25.33156
G1 X-35.588 Y4.892 E25.44748
G1 X-35.693 Y6.576 E25.53166
G1 X-35.828 Y9.142 E25.65986
G1 X-35.974 Y12.77 E25.84101
G1 X-36.012 Y13.943 E25.89956
G1 X-36.084 Y16.584 E26.03137
G1 X-36.143 Y19.33 E26.1684
G1 X-36.208 Y23.612 E26.38205
G1 X-36.261 Y29.816 E26.69158
G1 X-36.286 Y40.117 E27.2055
G1 X-36.284 Y40.119 E27.20564
G1 X-35.831 Y40.741 E27.24403
G1 X-35.445 Y41.406 E27.28239
G1 X-35.13 Y42.108 E27.32078
G1 X-34.89 Y42.839 E27.35917
G1 X-34.727 Y43.59 E27.39751
G1 X-34.643 Y44.355 E27.4359
G1 X-34.631 Y44.782 E27.45721
G1 X-34.632 Y49.548 E27.69499
G1 X-34.672 Y50.316 E27.73336
G1 X-34.792 Y51.075 E27.77169
G1 X-34.99 Y51.819 E27.8101
G1 X-35.264 Y52.537 E27.84844
G1 X-35.611 Y53.224 E27.88684
G1 X-36.027 Y53.87 E27.92518
G1 X-36.508 Y54.47 E27.96354
G1 X-36.799 Y54.779 E27.98472
G1 X-36.916 Y54.896 E27.99297
G1 X-37.488 Y55.41 E28.03134
G1 X-38.11 Y55.863 E28.06973
G1 X-38.775 Y56.249 E28.10809
G1 X-39.477 Y56.564 E28.14648
G1 X-40.208 Y56.804 E28.18486
G1 X-40.959 Y56.967 E28.2232
G1 X-41.724 Y57.051 E28.2616
G1 X-42.149 Y57.063 E28.28281
G1 X-46.915 Y57.063 E28.52059
G1 X-47.683 Y57.023 E28.55895
G1 X-48.443 Y56.904 E28.59733
G1 X-49.186 Y56.706 E28.63569
G1 X-49.905 Y56.432 E28.67408
G1 X-50.591 Y56.085 E28.71244
G1 X-51.238 Y55.669 E28.75081
G1 X-51.838 Y55.188 E28.78918
G1 X-52.148 Y54.896 E28.81042
G1 X-52.265 Y54.779 E28.81868
G1 X-52.779 Y54.207 E28.85704
G1 X-53.232 Y53.585 E28.89543
G1 X-53.618 Y52.92 E28.93379
G1 X-53.933 Y52.218 E28.97218
G1 X-54.173 Y51.487 E29.01057
G1 X-54.336 Y50.736 E29.04891
G1 X-54.42 Y49.971 E29.0873
G1 X-54.432 Y49.546 E29.10851
G1 X-54.432 Y44.774 E29.34659
G1 X-54.392 Y44.006 E29.38496
G1 X-54.273 Y43.246 E29.42334
G1 X-54.075 Y42.503 E29.4617
G1 X-53.801 Y41.784 E29.50009
G1 X-53.454 Y41.098 E29.53844
G1 X-53.038 Y40.451 E29.57682
G1 X-52.789 Y40.151 E29.59627
G1 X-52.769 Y30.555 E30.07501
G1 X-52.769 Y30.512 E30.07716
G1 X-52.72 Y24.247 E30.38973
G1 X-52.719 Y24.2 E30.39208
G1 X-52.656 Y19.77 E30.61311
G1 X-52.656 Y19.728 E30.61521
G1 X-52.6 Y16.905 E30.75607
G1 X-52.598 Y16.859 E30.75837
G1 X-52.527 Y14.138 E30.89417
G1 X-52.526 Y14.095 E30.89632
G1 X-52.45 Y11.71 E31.01536
G1 X-52.448 Y11.648 E31.01846
G1 X-52.335 Y8.841 E31.15861
G1 X-52.331 Y8.761 E31.16261
G1 X-52.194 Y6.083 E31.29639
G1 X-52.191 Y6.017 E31.29969
G1 X-52.088 Y4.304 E31.3853
G1 X-52.082 Y4.214 E31.3898
G1 X-51.904 Y1.753 E31.5129
G1 X-51.896 Y1.653 E31.51791
G1 X-51.761 Y0.083 E31.59653
G1 X-51.751 Y-0.02 E31.60169
G1 X-51.539 Y-2.137 E31.70783
G1 X-51.529 Y-2.237 E31.71285
G1 X-51.407 Y-3.309 E31.76668
G1 X-51.392 Y-3.428 E31.77266
G1 X-51.191 Y-4.971 E31.85029
G1 X-51.178 Y-5.065 E31.85502
G1 X-51.015 Y-6.202 E31.91233
G1 X-50.991 Y-6.359 E31.92025
G1 X-50.756 Y-7.78 E31.99211
G1 X-50.725 Y-7.953 E32.00088
G1 X-50.469 Y-9.302 E32.06938
G1 X-50.437 Y-9.46 E32.07742
G1 X-50.281 Y-10.194 E32.11486
G1 X-50.257 Y-10.304 E32.12048
G1 X-50.103 Y-10.978 E32.15497
G1 X-50.073 Y-11.105 E32.16148
G1 X-49.885 Y-11.866 E32.20059
G1 X-49.849 Y-12.007 E32.20785
G1 X-49.652 Y-12.742 E32.24581
