;FLAVOR:Marlin
;TIME:369
;Filament used: 0.441726m
;Layer height: 0.2
;MINX:-11.3
;MINY:-34.466
;MINZ:0.3
;MAXX:11.3
;MAXY:34.466
;MAXZ:5.9
;Generated with Cura_SteamEngine 4.1.0
M104 S200
M105
M109 S200
M82 ;absolute extrusion mode
G28 ;Home
G1 Z15.0 F6000 ;Move the platform down 15mm
;Prime the extruder
G92 E0
G1 F200 E3
G92 E0
G92 E0
G92 E0
G1 F1500 E-5
;LAYER_COUNT:29
;LAYER:0
M107
G0 F3600 X7.3 Y5.383 Z0.3
;TYPE:SKIRT
G1 F1500 E0
G1 F2400 X7.571 Y5.656 E0.01919
G1 X7.831 Y5.932 E0.03811
G1 X8.179 Y6.319 E0.06407
G1 X8.675 Y6.93 E0.10334
G1 X8.988 Y7.358 E0.12979
G1 X9.437 Y8.044 E0.17069
G1 X9.692 Y8.483 E0.19602
G1 X10.067 Y9.216 E0.2371
G1 X10.288 Y9.71 E0.2641
G1 X10.586 Y10.483 E0.30543
G1 X10.745 Y10.972 E0.33108
G1 X10.957 Y11.764 E0.37199
G1 X11.067 Y12.282 E0.39841
G1 X11.194 Y13.082 E0.43882
G1 X11.249 Y13.602 E0.46491
G1 X11.292 Y14.385 E0.50403
G1 X11.3 Y16.069 E0.58805
G1 X11.3 Y26.548 E1.11085
G1 X11.26 Y27.337 E1.15026
G1 X11.141 Y28.117 E1.18962
G1 X10.943 Y28.882 E1.22905
G1 X10.669 Y29.622 E1.26842
G1 X10.321 Y30.331 E1.30782
G1 X9.903 Y31.002 E1.34726
G1 X9.42 Y31.626 E1.38663
G1 X9.039 Y32.04 E1.4147
G1 X8.922 Y32.158 E1.42299
G1 X8.338 Y32.69 E1.4624
G1 X7.704 Y33.16 E1.50178
G1 X7.025 Y33.564 E1.54119
G1 X6.309 Y33.896 E1.58057
G1 X5.563 Y34.155 E1.61997
G1 X4.794 Y34.337 E1.65939
G1 X4.011 Y34.441 E1.6988
G1 X3.383 Y34.466 E1.73015
G1 X0.617 Y34.466 E1.86815
G1 X-.172 Y34.426 E1.90756
G1 X-.952 Y34.307 E1.94693
G1 X-1.717 Y34.109 E1.98635
G1 X-2.457 Y33.835 E2.02572
G1 X-3.166 Y33.487 E2.06512
G1 X-3.837 Y33.069 E2.10456
G1 X-4.461 Y32.586 E2.14393
G1 X-4.898 Y32.181 E2.17366
G1 X-5.015 Y32.064 E2.18191
G1 X-5.545 Y31.478 E2.22133
G1 X-6.012 Y30.842 E2.2607
G1 X-6.413 Y30.162 E2.30008
G1 X-6.743 Y29.444 E2.33951
G1 X-6.998 Y28.697 E2.37889
G1 X-7.177 Y27.928 E2.41828
G1 X-7.277 Y27.144 E2.45771
G1 X-7.3 Y26.549 E2.48741
G1 X-7.3 Y17.092 E2.95923
G1 X-7.571 Y16.819 E2.97842
G1 X-7.831 Y16.543 E2.99733
G1 X-8.179 Y16.156 E3.0233
G1 X-8.678 Y15.541 E3.06281
G1 X-8.992 Y15.111 E3.08938
G1 X-9.446 Y14.414 E3.13088
G1 X-9.702 Y13.971 E3.1564
G1 X-10.065 Y13.263 E3.1961
G1 X-10.285 Y12.773 E3.22289
G1 X-10.588 Y11.985 E3.26501
G1 X-10.746 Y11.498 E3.29056
G1 X-10.958 Y10.705 E3.33151
G1 X-11.068 Y10.185 E3.35803
G1 X-11.193 Y9.395 E3.39793
G1 X-11.248 Y8.877 E3.42392
G1 X-11.292 Y8.087 E3.46339
G1 X-11.3 Y6.234 E3.55584
G1 X-11.3 Y-26.548 E5.19134
G1 X-11.26 Y-27.337 E5.23075
G1 X-11.141 Y-28.117 E5.27012
G1 X-10.943 Y-28.882 E5.30954
G1 X-10.669 Y-29.622 E5.34891
G1 X-10.321 Y-30.331 E5.38831
G1 X-9.903 Y-31.002 E5.42775
G1 X-9.42 Y-31.626 E5.46712
G1 X-9.039 Y-32.04 E5.49519
G1 X-8.922 Y-32.158 E5.50348
G1 X-8.338 Y-32.69 E5.5429
G1 X-7.704 Y-33.16 E5.58227
G1 X-7.025 Y-33.564 E5.62169
G1 X-6.309 Y-33.896 E5.66106
G1 X-5.563 Y-34.155 E5.70046
G1 X-4.794 Y-34.337 E5.73988
G1 X-4.011 Y-34.441 E5.77929
G1 X-3.383 Y-34.466 E5.81065
G1 X-.617 Y-34.466 E5.94864
G1 X0.172 Y-34.426 E5.98806
G1 X0.952 Y-34.307 E6.02742
G1 X1.717 Y-34.109 E6.06685
G1 X2.457 Y-33.835 E6.10621
G1 X3.166 Y-33.487 E6.14562
G1 X3.837 Y-33.069 E6.18506
G1 X4.461 Y-32.586 E6.22443
G1 X4.898 Y-32.181 E6.25415
G1 X5.015 Y-32.064 E6.26241
G1 X5.545 Y-31.478 E6.30183
G1 X6.012 Y-30.842 E6.34119
G1 X6.413 Y-30.162 E6.38058
G1 X6.743 Y-29.444 E6.42
G1 X6.998 Y-28.697 E6.45938
G1 X7.177 Y-27.928 E6.49877
G1 X7.277 Y-27.144 E6.5382
G1 X7.3 Y-26.549 E6.56791
G1 X7.3 Y5.383 E8.161
G0 F3600 X6.9 Y5.548
G1 F2400 X7.286 Y5.937 E8.18834
G1 X7.533 Y6.199 E8.20631
G1 X7.881 Y6.586 E8.23227
G1 X8.352 Y7.166 E8.26955
G1 X8.665 Y7.594 E8.296
G1 X9.091 Y8.245 E8.33482
G1 X9.346 Y8.684 E8.36014
G1 X9.702 Y9.379 E8.3991
G1 X9.923 Y9.873 E8.4261
G1 X10.205 Y10.607 E8.46533
G1 X10.364 Y11.096 E8.49098
G1 X10.566 Y11.847 E8.52978
G1 X10.676 Y12.365 E8.5562
G1 X10.796 Y13.124 E8.59454
G1 X10.851 Y13.644 E8.62063
G1 X10.892 Y14.387 E8.65775
G1 X10.9 Y16.071 E8.74177
G1 X10.9 Y26.548 E9.26447
G1 X10.86 Y27.316 E9.30284
G1 X10.741 Y28.076 E9.34121
G1 X10.543 Y28.819 E9.37958
G1 X10.269 Y29.538 E9.41796
G1 X9.922 Y30.224 E9.45632
G1 X9.506 Y30.871 E9.49469
G1 X9.025 Y31.471 E9.53306
G1 X8.755 Y31.758 E9.55272
G1 X8.638 Y31.876 E9.56101
G1 X8.069 Y32.394 E9.5994
G1 X7.449 Y32.849 E9.63777
G1 X6.785 Y33.238 E9.67616
G1 X6.085 Y33.555 E9.7145
G1 X5.355 Y33.798 E9.75288
G1 X4.604 Y33.965 E9.79126
G1 X3.84 Y34.052 E9.82963
G1 X3.383 Y34.066 E9.85244
G1 X0.617 Y34.066 E9.99043
G1 X-.151 Y34.026 E10.0288
G1 X-.911 Y33.907 E10.06718
G1 X-1.654 Y33.709 E10.10554
G1 X-2.373 Y33.435 E10.14393
G1 X-3.059 Y33.088 E10.18228
G1 X-3.706 Y32.672 E10.22066
G1 X-4.306 Y32.191 E10.25902
G1 X-4.616 Y31.899 E10.28027
G1 X-4.733 Y31.782 E10.28852
G1 X-5.247 Y31.21 E10.32689
G1 X-5.7 Y30.588 E10.36528
G1 X-6.086 Y29.923 E10.40364
G1 X-6.401 Y29.221 E10.44203
G1 X-6.641 Y28.49 E10.48041
G1 X-6.804 Y27.739 E10.51875
G1 X-6.888 Y26.974 E10.55715
G1 X-6.9 Y26.549 E10.57836
G1 X-6.9 Y16.927 E11.0584
G1 X-7.286 Y16.538 E11.08574
G1 X-7.533 Y16.276 E11.10371
G1 X-7.881 Y15.889 E11.12967
G1 X-8.355 Y15.305 E11.1672
G1 X-8.669 Y14.875 E11.19376
G1 X-9.1 Y14.214 E11.23313
G1 X-9.356 Y13.771 E11.25866
G1 X-9.7 Y13.099 E11.29632
G1 X-9.92 Y12.609 E11.32312
G1 X-10.208 Y11.862 E11.36306
G1 X-10.366 Y11.375 E11.3886
G1 X-10.567 Y10.622 E11.42749
G1 X-10.677 Y10.102 E11.454
G1 X-10.796 Y9.352 E11.49189
G1 X-10.851 Y8.834 E11.51788
G1 X-10.892 Y8.085 E11.5553
G1 X-10.9 Y6.232 E11.64775
G1 X-10.9 Y-26.548 E13.28315
G1 X-10.86 Y-27.316 E13.32152
G1 X-10.741 Y-28.076 E13.3599
G1 X-10.543 Y-28.819 E13.39826
G1 X-10.269 Y-29.538 E13.43665
G1 X-9.922 Y-30.224 E13.475
G1 X-9.506 Y-30.871 E13.51337
G1 X-9.025 Y-31.471 E13.55174
G1 X-8.755 Y-31.758 E13.5714
G1 X-8.638 Y-31.876 E13.57969
G1 X-8.069 Y-32.394 E13.61808
G1 X-7.449 Y-32.849 E13.65645
G1 X-6.785 Y-33.238 E13.69484
G1 X-6.085 Y-33.555 E13.73318
G1 X-5.355 Y-33.798 E13.77156
G1 X-4.604 Y-33.965 E13.80994
G1 X-3.84 Y-34.052 E13.84831
G1 X-3.383 Y-34.066 E13.87112
G1 X-.617 Y-34.066 E14.00911
G1 X0.151 Y-34.026 E14.04748
G1 X0.911 Y-33.907 E14.08586
G1 X1.654 Y-33.709 E14.12422
G1 X2.373 Y-33.435 E14.16261
G1 X3.059 Y-33.088 E14.20096
G1 X3.706 Y-32.672 E14.23934
G1 X4.306 Y-32.191 E14.2777
G1 X4.616 Y-31.899 E14.29895
G1 X4.733 Y-31.782 E14.30721
G1 X5.247 Y-31.21 E14.34557
G1 X5.7 Y-30.588 E14.38396
G1 X6.086 Y-29.923 E14.42232
G1 X6.401 Y-29.221 E14.46071
G1 X6.641 Y-28.49 E14.49909
G1 X6.804 Y-27.739 E14.53743
G1 X6.888 Y-26.974 E14.57583
G1 X6.9 Y-26.549 E14.59704
G1 X6.9 Y5.548 E16.19837
G0 F3600 X6.5 Y5.713
G1 F2400 X7.002 Y6.219 E16.23393
G1 X7.236 Y6.466 E16.2509
G1 X7.584 Y6.853 E16.27687
G1 X8.029 Y7.402 E16.31213
G1 X8.342 Y7.83 E16.33858
G1 X8.745 Y8.446 E16.3753
G1 X9 Y8.885 E16.40063
G1 X9.337 Y9.542 E16.43747
G1 X9.558 Y10.036 E16.46447
G1 X9.825 Y10.73 E16.50157
G1 X9.984 Y11.219 E16.52722
G1 X10.174 Y11.93 E16.56394
G1 X10.284 Y12.448 E16.59036
G1 X10.398 Y13.166 E16.62663
G1 X10.453 Y13.686 E16.65272
G1 X10.492 Y14.389 E16.68784
G1 X10.5 Y16.073 E16.77186
G1 X10.5 Y26.548 E17.29446
G1 X10.46 Y27.295 E17.33178
G1 X10.341 Y28.033 E17.36907
G1 X10.143 Y28.755 E17.40642
G1 X9.87 Y29.451 E17.44372
G1 X9.523 Y30.114 E17.48106
G1 X9.108 Y30.737 E17.5184
G1 X8.471 Y31.477 E17.56712
G1 X8.354 Y31.595 E17.57541
G1 X7.799 Y32.097 E17.61274
G1 X7.195 Y32.537 E17.65002
G1 X6.546 Y32.91 E17.68737
G1 X5.862 Y33.212 E17.72467
G1 X5.149 Y33.44 E17.76202
G1 X4.416 Y33.589 E17.79934
G1 X3.383 Y33.666 E17.85102
G1 X0.617 Y33.666 E17.98901
G1 X-.13 Y33.626 E18.02633
G1 X-.868 Y33.507 E18.06363
G1 X-1.59 Y33.309 E18.10098
G1 X-2.286 Y33.036 E18.13828
G1 X-2.949 Y32.689 E18.17561
G1 X-3.572 Y32.274 E18.21296
G1 X-4.333 Y31.616 E18.26315
G1 X-4.45 Y31.499 E18.2714
G1 X-4.95 Y30.942 E18.30875
G1 X-5.387 Y30.336 E18.34602
G1 X-5.758 Y29.686 E18.38336
G1 X-6.057 Y29 E18.42069
G1 X-6.281 Y28.286 E18.45803
G1 X-6.428 Y27.553 E18.49533
G1 X-6.5 Y26.549 E18.54554
G1 X-6.5 Y16.762 E19.03382
G1 X-7.002 Y16.256 E19.06938
G1 X-7.236 Y16.009 E19.08635
G1 X-7.584 Y15.622 E19.11232
G1 X-8.032 Y15.069 E19.14783
G1 X-8.346 Y14.639 E19.17439
G1 X-8.754 Y14.013 E19.21167
G1 X-9.01 Y13.57 E19.2372
G1 X-9.335 Y12.935 E19.27278
G1 X-9.555 Y12.445 E19.29958
G1 X-9.827 Y11.738 E19.33737
G1 X-9.985 Y11.251 E19.36292
G1 X-10.175 Y10.54 E19.39963
G1 X-10.285 Y10.02 E19.42615
G1 X-10.398 Y9.31 E19.46202
G1 X-10.453 Y8.792 E19.48801
G1 X-10.492 Y8.083 E19.52343
G1 X-10.5 Y6.23 E19.61588
G1 X-10.5 Y-26.548 E21.25118
G1 X-10.46 Y-27.295 E21.2885
G1 X-10.341 Y-28.033 E21.3258
G1 X-10.143 Y-28.755 E21.36315
G1 X-9.87 Y-29.451 E21.40045
G1 X-9.523 Y-30.114 E21.43778
G1 X-9.108 Y-30.737 E21.47513
G1 X-8.471 Y-31.477 E21.52384
G1 X-8.354 Y-31.595 E21.53213
G1 X-7.799 Y-32.097 E21.56947
G1 X-7.195 Y-32.537 E21.60675
G1 X-6.546 Y-32.91 E21.64409
G1 X-5.862 Y-33.212 E21.6814
G1 X-5.149 Y-33.44 E21.71874
G1 X-4.416 Y-33.589 E21.75606
G1 X-3.383 Y-33.666 E21.80774
G1 X-.617 Y-33.666 E21.94573
G1 X0.13 Y-33.626 E21.98306
G1 X0.868 Y-33.507 E22.02035
G1 X1.59 Y-33.309 E22.0577
G1 X2.286 Y-33.036 E22.095
G1 X2.949 Y-32.689 E22.13233
G1 X3.572 Y-32.274 E22.16968
G1 X4.333 Y-31.616 E22.21987
G1 X4.45 Y-31.499 E22.22813
G1 X4.95 Y-30.942 E22.26547
G1 X5.387 Y-30.336 E22.30274
G1 X5.758 Y-29.686 E22.34008
G1 X6.057 Y-29 E22.37742
G1 X6.281 Y-28.286 E22.41475
G1 X6.428 Y-27.553 E22.45205
G1 X6.5 Y-26.549 E22.50227
G1 X6.5 Y5.713 E24.11182
G0 F3600 X6.718 Y6.501
G1 F2400 X6.939 Y6.734 E24.12785
G1 X7.287 Y7.121 E24.15381
G1 X7.706 Y7.638 E24.18701
G1 X8.019 Y8.066 E24.21347
G1 X8.399 Y8.647 E24.2481
G1 X8.654 Y9.086 E24.27343
G1 X8.972 Y9.706 E24.30819
G1 X9.193 Y10.2 E24.33519
G1 X9.445 Y10.854 E24.37016
G1 X9.604 Y11.343 E24.39581
G1 X9.783 Y12.013 E24.43041
G1 X9.893 Y12.531 E24.45683
G1 X10 Y13.208 E24.49103
G1 X10.055 Y13.728 E24.51711
G1 X10.092 Y14.391 E24.55024
G1 X10.1 Y16.075 E24.63426
G1 X10.1 Y26.548 E25.15676
G1 X10.06 Y27.273 E25.19298
G1 X9.941 Y27.99 E25.22924
G1 X9.743 Y28.689 E25.26549
G1 X9.47 Y29.362 E25.30172
G1 X9.125 Y30.001 E25.33795
G1 X8.711 Y30.598 E25.3742
G1 X8.187 Y31.195 E25.41383
G1 X8.07 Y31.313 E25.42212
G1 X7.531 Y31.8 E25.45836
G1 X6.941 Y32.225 E25.49464
G1 X6.309 Y32.582 E25.53085
G1 X5.641 Y32.868 E25.5671
G1 X4.946 Y33.078 E25.60332
G1 X4.232 Y33.211 E25.63956
G1 X3.383 Y33.266 E25.682
G1 X0.617 Y33.266 E25.82
G1 X-.108 Y33.226 E25.85623
G1 X-.825 Y33.107 E25.89249
G1 X-1.524 Y32.909 E25.92873
G1 X-2.197 Y32.636 E25.96497
G1 X-2.836 Y32.291 E26.0012
G1 X-3.433 Y31.877 E26.03744
G1 X-4.05 Y31.333 E26.07848
G1 X-4.167 Y31.216 E26.08673
G1 X-4.651 Y30.675 E26.12295
G1 X-5.074 Y30.084 E26.15921
G1 X-5.428 Y29.45 E26.19544
G1 X-5.711 Y28.781 E26.23168
G1 X-5.919 Y28.085 E26.26792
G1 X-6.049 Y27.37 E26.30417
G1 X-6.1 Y26.549 E26.34521
G1 X-6.1 Y16.597 E26.84172
G1 X-6.718 Y15.974 E26.8855
G1 X-6.939 Y15.741 E26.90152
G1 X-7.287 Y15.354 E26.92749
G1 X-7.709 Y14.833 E26.96094
G1 X-8.023 Y14.403 E26.9875
G1 X-8.407 Y13.813 E27.02262
G1 X-8.663 Y13.37 E27.04815
G1 X-8.97 Y12.771 E27.08173
G1 X-9.19 Y12.281 E27.10852
G1 X-9.447 Y11.615 E27.14414
G1 X-9.605 Y11.128 E27.16968
G1 X-9.784 Y10.457 E27.20433
G1 X-9.894 Y9.937 E27.23085
G1 X-10 Y9.268 E27.26464
G1 X-10.055 Y8.75 E27.29063
G1 X-10.092 Y8.081 E27.32406
G1 X-10.1 Y6.228 E27.4165
G1 X-10.1 Y-26.548 E29.0517
G1 X-10.06 Y-27.273 E29.08793
G1 X-9.941 Y-27.99 E29.12419
G1 X-9.743 Y-28.689 E29.16044
G1 X-9.47 Y-29.362 E29.19667
G1 X-9.125 Y-30.001 E29.2329
G1 X-8.711 Y-30.598 E29.26914
G1 X-8.187 Y-31.195 E29.30877
G1 X-8.07 Y-31.313 E29.31706
G1 X-7.531 Y-31.8 E29.35331
G1 X-6.941 Y-32.225 E29.38958
G1 X-6.309 Y-32.582 E29.4258
G1 X-5.641 Y-32.868 E29.46205
G1 X-4.946 Y-33.078 E29.49827
G1 X-4.232 Y-33.211 E29.5345
G1 X-3.383 Y-33.266 E29.57695
G1 X-.617 Y-33.266 E29.71495
G1 X0.108 Y-33.226 E29.75117
G1 X0.825 Y-33.107 E29.78743
G1 X1.524 Y-32.909 E29.82368
G1 X2.197 Y-32.636 E29.85991
G1 X2.836 Y-32.291 E29.89614
G1 X3.433 Y-31.877 E29.93239
G1 X4.05 Y-31.333 E29.97342
G1 X4.167 Y-31.216 E29.98168
G1 X4.651 Y-30.675 E30.01789
G1 X5.074 Y-30.084 E30.05415
G1 X5.428 Y-29.45 E30.09038
G1 X5.711 Y-28.781 E30.12662
G1 X5.919 Y-28.085 E30.16286
G1 X6.049 Y-27.37 E30.19912
G1 X6.1 Y-26.549 E30.24016
G1 X6.1 Y5.878 E31.85795
G1 X6.718 Y6.501 E31.90173
G0 F3600 X6.434 Y6.782
G1 F2400 X6.641 Y7.001 E31.91676
G1 X6.989 Y7.388 E31.94273
G1 X7.384 Y7.874 E31.97397
G1 X7.697 Y8.302 E32.00043
G1 X8.053 Y8.848 E32.03294
G1 X8.308 Y9.287 E32.05827
G1 X8.606 Y9.869 E32.09089
G1 X8.827 Y10.363 E32.11789
G1 X9.064 Y10.978 E32.15078
G1 X9.223 Y11.467 E32.17643
G1 X9.392 Y12.096 E32.20892
G1 X9.502 Y12.614 E32.23534
G1 X9.603 Y13.25 E32.26747
G1 X9.658 Y13.77 E32.29356
G1 X9.692 Y14.393 E32.32469
G1 X9.7 Y16.077 E32.4087
G1 X9.7 Y26.548 E32.9311
G1 X9.66 Y27.251 E32.96623
G1 X9.541 Y27.945 E33.00136
G1 X9.343 Y28.62 E33.03646
G1 X9.071 Y29.269 E33.07156
G1 X8.726 Y29.883 E33.1067
G1 X8.315 Y30.454 E33.1418
G1 X7.903 Y30.913 E33.17257
G1 X7.786 Y31.031 E33.18086
G1 X7.262 Y31.502 E33.21601
G1 X6.689 Y31.911 E33.25113
G1 X6.073 Y32.252 E33.28626
G1 X5.423 Y32.521 E33.32136
G1 X4.746 Y32.714 E33.35648
G1 X4.051 Y32.83 E33.39163
G1 X3.383 Y32.866 E33.42501
G1 X0.617 Y32.866 E33.563
G1 X-0.086 Y32.826 E33.59813
G1 X-.78 Y32.707 E33.63326
G1 X-1.455 Y32.509 E33.66836
G1 X-2.104 Y32.237 E33.70346
G1 X-2.718 Y31.892 E33.7386
G1 X-3.289 Y31.481 E33.7737
G1 X-3.767 Y31.05 E33.80581
G1 X-3.884 Y30.933 E33.81407
G1 X-4.353 Y30.408 E33.84919
G1 X-4.759 Y29.833 E33.88431
G1 X-5.097 Y29.215 E33.91945
G1 X-5.364 Y28.564 E33.95455
G1 X-5.554 Y27.886 E33.98968
G1 X-5.667 Y27.191 E34.02481
G1 X-5.7 Y26.549 E34.05688
G1 X-5.7 Y16.433 E34.56157
G1 X-6.434 Y15.693 E34.61357
G1 X-6.641 Y15.474 E34.6286
G1 X-6.989 Y15.087 E34.65457
G1 X-7.386 Y14.597 E34.68603
G1 X-7.7 Y14.167 E34.7126
G1 X-8.061 Y13.613 E34.74559
G1 X-8.317 Y13.17 E34.77111
G1 X-8.605 Y12.607 E34.80266
G1 X-8.825 Y12.117 E34.82946
G1 X-9.066 Y11.491 E34.86292
G1 X-9.224 Y11.004 E34.88847
G1 X-9.393 Y10.374 E34.92101
G1 X-9.503 Y9.854 E34.94753
G1 X-9.602 Y9.226 E34.97925
G1 X-9.657 Y8.708 E35.00523
G1 X-9.692 Y8.08 E35.03661
G1 X-9.7 Y6.227 E35.12906
G1 X-9.7 Y-26.548 E36.76421
G1 X-9.66 Y-27.251 E36.79934
G1 X-9.541 Y-27.945 E36.83447
G1 X-9.343 Y-28.62 E36.86957
G1 X-9.071 Y-29.269 E36.90467
G1 X-8.726 Y-29.883 E36.93981
G1 X-8.315 Y-30.454 E36.97491
G1 X-7.903 Y-30.913 E37.00568
G1 X-7.786 Y-31.031 E37.01397
G1 X-7.262 Y-31.502 E37.04912
G1 X-6.689 Y-31.911 E37.08424
G1 X-6.073 Y-32.252 E37.11937
G1 X-5.423 Y-32.521 E37.15447
G1 X-4.746 Y-32.714 E37.18959
G1 X-4.051 Y-32.83 E37.22474
G1 X-3.383 Y-32.866 E37.25812
G1 X-.617 Y-32.866 E37.39611
G1 X0.086 Y-32.826 E37.43124
G1 X0.78 Y-32.707 E37.46637
G1 X1.455 Y-32.509 E37.50147
G1 X2.104 Y-32.237 E37.53657
G1 X2.718 Y-31.892 E37.57171
G1 X3.289 Y-31.481 E37.60681
G1 X3.767 Y-31.05 E37.63892
G1 X3.884 Y-30.933 E37.64718
G1 X4.353 Y-30.408 E37.6823
G1 X4.759 Y-29.833 E37.71742
G1 X5.097 Y-29.215 E37.75256
G1 X5.364 Y-28.564 E37.78766
G1 X5.554 Y-27.886 E37.82279
G1 X5.667 Y-27.191 E37.85792
G1 X5.7 Y-26.549 E37.88999
G1 X5.7 Y6.042 E39.51596
G1 X6.434 Y6.782 E39.56796
G0 F3600 X6.15 Y7.064
G1 F2400 X6.344 Y7.269 E39.58204
G1 X6.692 Y7.656 E39.60801
G1 X7.061 Y8.11 E39.6372
G1 X7.374 Y8.538 E39.66365
G1 X7.707 Y9.049 E39.69408
G1 X7.962 Y9.488 E39.71941
G1 X8.241 Y10.032 E39.74991
G1 X8.462 Y10.526 E39.77691
G1 X8.684 Y11.102 E39.80771
G1 X8.843 Y11.591 E39.83336
G1 X9 Y12.179 E39.86372
G1 X9.11 Y12.697 E39.89014
G1 X9.205 Y13.292 E39.9202
G1 X9.26 Y13.812 E39.94629
G1 X9.292 Y14.394 E39.97537
G1 X9.3 Y16.078 E40.05939
G1 X9.3 Y26.548 E40.58174
G1 X9.26 Y27.228 E40.61572
G1 X9.141 Y27.898 E40.64967
G1 X8.944 Y28.55 E40.68365
G1 X8.672 Y29.174 E40.71761
G1 X8.328 Y29.762 E40.7516
G1 X7.918 Y30.306 E40.78559
G1 X7.619 Y30.632 E40.80765
G1 X7.502 Y30.75 E40.81594
G1 X6.995 Y31.204 E40.8499
G1 X6.438 Y31.596 E40.88388
G1 X5.839 Y31.92 E40.91785
G1 X5.206 Y32.172 E40.95185
G1 X4.549 Y32.348 E40.98578
G1 X3.875 Y32.445 E41.01975
G1 X3.383 Y32.466 E41.04432
G1 X0.617 Y32.466 E41.18232
G1 X-0.063 Y32.426 E41.2163
